!!!!SEGMENT: pl-wn--bj-muz-8812-iii--004_zelenski-wladyslaw--sonate-op-20-allegro-moderato.krn
!!!cenid: 18xx:3694
!!!COM: Żeleński, Władysław
!!!COM-rismID: pe41024455
!!!CDT: 1837/07/06-1921/01/23
!!!CNT: Polish
!!!OPR: Sonate op. 20
!!!OTL: Allegro moderato
!!!OMV: 004
!!!PDT:
!!!AGN:
!!!SMS-siglum: PL-Wn
!!!SMS-shelfmark: BJ Muz. 8812 III
!!!SMS-shelfwork: 001-004 M
!!!SMS-variant:
!!!SMS-altvar:
!!!NIFC-rismSourceID:
!!!NIFC-rismChildID:
!!!NIFC-islandoraID: none
!!!URL-pdf-islandora:
!!!URL-scan: https://polona2.pl/item/sonate-fur-pianoforte-op-20,ODQ3MjQzNDE/0/#item @EN{Scan on Polona} @PL{Skany w portalu Polona}
!!!IIIF: https://polona2.pl/iiif/item/ODQ3MjQzNDE/manifest.json
!!!ONB-nifc: UWAGA: części Sonaty: 1. Allegro con moto, 2. Adagio, 3. Scherzo, 4. Allegro moderato
!!!AIN: 1 piano
!!!key:
**kern	**fing	**kern	**dynam
*part1	*part1	*part1	*part1
*staff2	*	*staff1	*
*Ipiano	*	*Iempty	*
*I"Pianoforte	*	*	*
*I'P-no	*	*	*
*ICklav	*	*	*
*clefF4	*	*clefG2	*
*k[f#c#g#d#]	*	*k[f#c#g#d#]	*
*E:	*	*E:	*
*M2/4	*	*M2/4	*
*xywh-20:795,479,2327,529	*	*xywh-20:795,479,2327,529	*
!	!	!LO:TX:a:i:t=Allegro moderato.	!
!	!	!LO:TX:a:i:t=[quarter]=92	!
8r	.	(>8B/	.
=1	=1	=1	=1
*	*	*^	*
*	*	*	*xywh-20:795,479,2327,529	*
[2EE/	.	8g#/L	16e\LL	p
!	!	!LO:TX:b:i:t=grazioso	!	!
.	.	.	16B\	.
.	.	8b/	16g#\	.
.	.	.	16B\JJ	.
.	.	8e/	16c#\LL	.
.	.	.	16B\	.
.	.	8f#/J	16d#\	.
.	.	.	16B\JJ	.
=2	=2	=2	=2	=2
16EE/]	.	8a/	16f#\LL	.
16r	.	.	16B\JJ	.
!LO:TUP:b	!	!	!	!
(24BB/LL	.	4g#/)	4e/	.
24C#/	.	.	.	.
24D#/JJ	.	.	.	.
16E\LL	.	.	.	.
16F#\	.	.	.	.
16G#\	.	8e/	8ryy	.
16E\JJ)	.	.	.	.
*	*	*v	*v	*
=3	=3	=3	=3
.	.	8qb/	<
(16c#\LL	.	(16a/LL	.
16B\	.	16g#/	.
16c#\	.	16a/	.
16d#\JJ	.	16b/JJ	.
16e\LL	.	16cc#\LL	.
16c#\	.	16dd#\	.
16B\	.	16ee\	.
16A\JJ)	.	16ff#\JJ)	.
=4	=4	=4	=4
.	.	(8qb/	.
(16E\LL 16G#\	.	8gg#'\)	.
16B\	.	.	.
16e\	.	(4b\	.
16f#\JJ	.	.	.
16g#\LL	.	.	.
16f#\	.	.	.
16e\	.	8b#X\	[[
16d#\JJ)	.	.	.
=5	=5	=5	=5
!	!	!LO:TX:a:i:t=leggiero	!
(16c#\LL	.	16cc#\LL	.
16d#\	.	16a\	.
16c#\	.	16ee\	.
16F#\JJ	.	16ff#\JJ	.
16c#\LL	.	8gg#'\L)	.
16e\	.	.	.
16c#\	.	(<[<8g#\J	.
16E\JJ)	.	.	.
!!LO:LB:g=original
=6	=6	=6	=6
*xywh-20:814,1013,2313,457	*	*xywh-20:814,1013,2313,457	*
(16G#\LL	.	16g#/LL]	.
16A#X\	.	16e/	.
16G#\	.	16b/	.
16C#\JJ	.	16cc#/JJ	.
16G#\LL	.	8dd#'/L)	.
16B\	.	.	.
16G#\	.	(8e#X/J 8ddn/	.
16BB\JJ)	.	.	.
=7	=7	=7	=7
*	*	*^	*
*	*	*	*xywh-20:814,1013,2313,457	*
(16F#\LL	.	8cc#'/L	8f#\L)	.
16A\	.	.	.	.
16F#\	.	(16g#/L	8c#\J	<
16AA\JJ	.	16f#/JJ	.	.
16F#\LL	.	8e/L	4B#X\	.
16G#\	.	.	.	.
16F#\	.	16d#/L	.	.
16GG#\JJ	.	16e/JJ	.	[
*	*	*v	*v	*
=8	=8	=8	=8
8E'\)	.	16d#/LL)	>
.	.	(16G#/	.
(4CC#^>/	.	16c#/	.
.	.	16e/JJ	.
.	.	16d#/LL	.
.	.	16A/	.
8BBB/)	.	16d#/	.
.	.	16f#/JJ)	]]
=9	=9	=9	=9
*	*	*^	*
*	*	*	*xywh-20:814,1013,2313,457	*
[2EE/	.	(8g#/L	16e\LL	.
.	.	.	16B\	.
.	.	8b/	16g#\	.
.	.	.	16B\JJ	.
.	.	8e/	16c#\LL	.
.	.	.	16B\	.
.	.	8f#/J	16d#\	.
.	.	.	16B\JJ	.
=10	=10	=10	=10	=10
8EE/]	.	8a/	16f#\LL	.
.	.	.	16B\JJ	.
!LO:TUP:b	!	!	!	!
(24BB/LL	.	4g#/)	4e/	.
24C#/	.	.	.	.
24D#/JJ	.	.	.	.
16E\LL	.	.	.	.
16F#\	.	.	.	.
16G#\	.	8e/	8ryy	.
16E\JJ)	.	.	.	.
*	*	*v	*v	*
=11	=11	=11	=11
!	!	!	!LO:HP:b=2
.	.	8qb/	<
(16c#\LL	.	(16a/LL	.
16B\	.	16g#/	.
16c#\	.	16a/	.
16d#\JJ	.	16b/JJ	.
16e\LL	.	16cc#\LL	.
16c#\	.	16dd#\	.
16B\	.	16ee\	.
16A\JJ)	.	16ff#\JJ	[
!!LO:LB:g=original
=12	=12	=12	=12
*	*	*	*^
*xywh-20:796,1425,2350,482	*	*xywh-20:796,1425,2350,482	*	*
!	!	!	!LO:HP:b=2	!LO:HP:a
.	.	(8qg#/	<	<
(16E\LL 16G#\	.	8gg#\))	.	.
16B\	.	.	.	.
16e\	.	(4b\	.	.
16g#\JJ	.	.	.	[
16a\LL	.	.	.	.
16f#\	.	.	.	.
16e\	.	8b#X\	.	.
16d#\JJ)	.	.	[	.
*	*	*	*v	*v
=13	=13	=13	=13
!	!	!LO:TX:a:i:t=leggiero	!
(16c#\LL	.	16cc#\LL	.
16d#\	.	16a\	.
16c#\	.	16ee\	.
16F#\JJ	.	16ff#\JJ	.
16B\LL	.	8gg#'\L)	.
16dn\	.	.	.
16B\	.	(16a#X\L	.
16E#X\JJ	.	16b\JJ	.
=14	=14	=14	=14
16A#X\LL	.	16cc#/LL	.
16c#\	.	16f#/	.
16A#\	.	16dd#/	.
16En\JJ	.	16ee/JJ	.
16An\LL	.	8ff#'\L)	.
16cn\	.	.	.
16A\	.	(16g#\L	.
16D#\JJ)	.	16an\JJ	.
=15	=15	=15	=15
*	*	*	*^
(16G#\LL	.	16b/LL	.	<
!	!	!	!LO:HP:b=2	!
16B\	.	16e/	<	.
16G#\	.	16dd#/	.	.
16Dn\JJ	.	16ee/JJ	.	.
16A\LL	.	16a/LL	.	.
16c#\	.	16e/	.	.
16A\	.	16dd#/	.	.
16C#\JJ	.	16ee/JJ)	.	.
=16	=16	=16	=16	=16
16G#\LL	.	(16g#/LL	.	.
16B\	.	16dn/	.	.
16G#\	.	16cc#/	.	.
16BB\JJ	.	16ddn/JJ	.	.
16F#\LL	.	16f#/LL	.	.
16A\	.	16c#/	.	.
16F#\	.	16b#X/	.	.
16AA\JJ)	.	16cc#/JJ)	[	[
*	*	*	*v	*v
=17	=17	=17	=17
*	*	*^	*
*	*	*	*xywh-20:796,1425,2350,482	*
(16F#\LL	.	16r	16ryy	.
!	!	!LO:TX:a:i:t=espress.	!	!
16A\	.	(16c#/LL	8.c#\	.
16F#\	.	16d#/	.	.
16BB\JJ	.	16a/JJ	.	.
16F#\LL	.	8.g#/L	16g#\LL	.
16A\	.	.	16B\	.
16F#\	.	.	16d#\	.
16BB\JJ	.	16g#/Jk	16g#\JJ	.
!!LO:LB:g=original
=18	=18	=18	=18	=18
*xywh-20:844,1917,2306,438	*	*xywh-20:844,1917,2306,438	*xywh-20:844,1917,2306,438	*
16E\LL	.	8f#/L	16f#\LL	>
16G#\	.	.	16B\	.
16E\	.	16e/Jk)	16e\JJ	.
!	!	!LO:TX:a:i:t=un poco piu vivo	!	!
16BB\JJ	.	16r	16ryy	]
8EE/)	.	4r	4ryy	f
(16E\LL	.	.	.	.
16F#\JJ	.	.	.	.
*	*	*v	*v	*
=19	=19	=19	=19
8G#m\L	.	2r	.
16F#\L	.	.	.
16E\JJ)	.	.	.
(8A#Xm\L	.	.	.
16G#\L	.	.	.
16F#\JJ	.	.	.
=20	=20	=20	=20
8B\L)	.	2r	.
8F#'\J	.	.	.
(8An\L	.	.	.
16G#\L	.	.	.
16F#\JJ	.	.	.
=21	=21	=21	=21
16G#\LL)	.	2r	.
16E'\	.	.	.
16G#'\	.	.	.
16c#'\JJ	.	.	.
16B'\LL	.	.	.
16F#'\	.	.	.
16G#'\	.	.	.
16A'\JJ	.	.	.
=22	=22	=22	=22
16G#'\LL	.	2r	.
16E'\	.	.	.
16G#'\	.	.	.
16c#'\JJ	.	.	.
16B'\LL	.	.	.
16F#'\	.	.	.
16G#'\	.	.	.
16A'\JJ	.	.	.
=23	=23	=23	=23
16G#'\LL	.	4r	>
16E'\	.	.	.
16F#'\	.	.	.
16Gn'\JJ	.	.	.
16F#'\LL	.	8r	.
16E'\	.	.	.
*	*	*	*^
16D#'\	.	(16B/LL	.	p
*	*	*	*v	*v
16C#'\JJ	.	16c#/JJ	]
=24	=24	=24	=24
8BB'\L	.	8d#m/L	.
8D#'\	.	16c#/L	.
.	.	16B/JJ)	.
(8G#'\	.	(8e#Xm/L	.
[8BB'\J	.	16d#/L	.
.	.	16c#/JJ	.
!!LO:LB:g=original
=25	=25	=25	=25
*xywh-20:838,2341,2302,432	*	*xywh-20:838,2341,2302,432	*
16BB/LL]	.	8f#'/L)	.
16AA#X/	.	.	.
16BB/	.	8c#'/J	.
16GG#/JJ	.	.	.
8AA#'/L)	.	(8en/L	.
8FF#'/J	.	16d#/L	.
.	.	16c#/JJ	.
=26	=26	=26	=26
8BB'/	.	16d#/LL)	.
.	.	16B'/	.
(4B\	.	16d#'/	.
.	.	16g#'/JJ	.
.	.	16f#'/LL	.
.	.	16c#'/	.
8A#X\	.	16d#'/	.
.	.	16e'/JJ	.
=27	=27	=27	=27
8B'\)	.	16d#'/LL	.
.	.	16B'/	.
(>4BB/	.	16d#'/	.
.	.	16g#'/JJ	.
.	.	16f#'/LL	.
.	.	16c#'/	.
8AA#X/	.	16d#'/	.
.	.	16e'/JJ	.
=28	=28	=28	=28
*^	*	*	*
*	*xywh-20:838,2341,2302,432	*	*	*
4r	8BB'\L)	.	16d#'/LL	<
.	.	.	16B'/	.
.	8C#'\	.	16d#'/	.
.	.	.	16c#'/JJ	.
16B'>/LL	8D#'\	.	8r	[
16A'>/	.	.	.	.
16G#'>/	8BB'\J	.	(16e/LL	f
16F#'>/JJ	.	.	16f#/JJ	.
=29	=29	=29	=29	=29
8E/L	8E\	.	8g#m/L	.
8B'/J	8ryy	.	16f#/L	.
.	.	.	16e/JJ)	.
([4e\	4ryy	.	(8a#Xm/L	.
.	.	.	16g#/L	.
.	.	.	16f#/JJ	.
*v	*v	*	*	*
=30	=30	=30	=30
16e\LL]	.	8b/L)	.
16d#\	.	.	.
16e\	.	8f#'/	.
16c#\JJ	.	.	.
8d#'\L)	.	(8an/	.
8B'\J	.	16g#/L	.
.	.	16f#/JJ	.
!!LO:LB:g=original
=31	=31	=31	=31
*xywh-20:827,2775,2323,432	*	*xywh-20:827,2775,2323,432	*
8e\L	.	16g#/LL)	.
.	.	(16e/	p
(16B\L	.	16g#/	.
16c#\JJ	.	16cc#/JJ	.
8d#'\L)	.	16b/LL	.
.	.	16f#/	.
8B'\J	.	16g#/	.
.	.	16a/JJ	.
=32	=32	=32	=32
8e\L	.	16g#'/LL)	.
.	.	(16e/	.
(16B\L	.	16g#/	.
16c#\JJ	.	16cc#/JJ	.
8d#'\L)	.	16b/LL	.
.	.	16f#/	.
8B'\J	.	16g#/	.
.	.	16a/JJ	.
=33	=33	=33	=33
8e\L	.	16g#'/LL)	.
.	.	(16e/	.
(16c#\L	.	16g#/	.
16d#\JJ	.	16dd#/JJ	.
8e'\L)	.	16cc#/LL	.
.	.	16g#/	.
8c#'\J	.	16a#X/	.
.	.	16b/JJ	.
*clefG2	*	*	*
=34	=34	=34	=34
8f#'/L	.	16a#X'/LL)	.
.	.	(<16f#/	.
(16d#/L	.	16a#/	.
16e/JJ	.	16ee/JJ	.
8f#'/L)	.	16dd#\LL	.
.	.	16a#\	.
8d#'/J	.	16b\	.
.	.	16cc#\JJ	.
=35	=35	=35	=35
8g#'/L	.	16b'\LL)	>
.	.	(16g#\	.
(16e/L	.	16b\	.
16f#/JJ	.	16ff#\JJ	.
8g#'/L)	.	16ee\LL)	.
.	.	(16g#\	.
(16e/L	.	16b\	.
16f#/JJ	.	16ff#\JJ	.
=36	=36	=36	=36
8g#'/L)	.	16ee\LL)	.
.	.	(16g#\	.
(16e/L	.	16b\	.
16f#/JJ	.	16ff#\JJ	.
8g#/L)	.	16ee\LL	.
.	.	16dd#\	.
8e#X/J	.	16cc#\	.
.	.	16b\JJ	.
!!LO:LB:g=original
=37	=37	=37	=37
*xywh-20:827,3197,2329,498	*	*xywh-20:827,3197,2329,498	*
!	!	!LO:SIC:v:o:s=koniec łuku od dołu	!
8f#X/	.	8a#X'/)	.
(16f#/LL 16a#X/	.	(16ee\LL 16ff#\	sf
16b/J	.	16gg#\JJ	.
8f#'/J) 8a#/	.	8ee'\L) 8ff#\	.
8r	.	(16ee\L	pp
.	.	16ddd#\JJ	.
=38	=38	=38	=38
8r	.	16ccc#\LL	.
.	.	16dd#\	.
8F#'/	.	16ff#\	.
.	.	16bb\JJ	.
((4f#^/ 4g#/ 4b/	.	16aa#X\LL	.
.	.	16ddn\	.
.	.	16ee#X\	.
.	.	16gg#\JJ	.
=39	=39	=39	=39
8f#'/)) 8a#X/	.	8cc#'\) 8ff#\	.
*clefF4	*	*	*
(16F#\LL 16A#X\	.	(16e/LL 16f#/	sf
16B\J	.	16g#/J	.
8F#'\J) 8A#\	.	8fn'/)	.
8r	.	((16e/L	pp
.	.	16dd#/JJ	.
=40	=40	=40	=40
8r	.	16cc#/LL	.
.	.	16d#/)	.
8FF#'/	.	16f#/	.
.	.	16b/JJ	.
((4F#^\ 4G#\ 4B\	.	16a#X/LL	.
.	.	16dn/	.
.	.	16e#X/	.
.	.	16g#/JJ	.
=41	=41	=41	=41
8F#'\)) 8A#X\	.	8c#'/) 8f#/	.
8r	.	(16f#/LL	.
.	.	16g#/J	.
4r	.	8f#'/)	.
.	.	(16f#/L	.
.	.	16g#/JJ	.
=42	=42	=42	=42
2r	.	8f#'/L)	.
.	.	(16f#/L	.
.	.	16g#/	.
.	.	16f#/	.
.	.	16g#/	.
.	.	16f#/	.
.	.	16g#/JJ	.
!!LO:PB:g=original
=43	=43	=43	=43
*^	*	*	*
*xywh-21:413,486,2350,563	*xywh-21:413,486,2350,563	*	*xywh-21:413,486,2350,563	*
!	!	!	!LO:SIC:v:o:s=zakończenie belki z poprzedniego taktu	!
8FF#'/	8ryy	.	8f#'/)	.
!LO:TX:b:i:t=cantabile	!	!	!LO:TX:a:i:t=leggiere	!
(4e/	[4.F#\	.	(16ff#\LL	.
.	.	.	16f#\	.
.	.	.	16gg#\	.
.	.	.	16f#\	.
8c#/)	.	.	16ee\	.
.	.	.	16f#\JJ	.
=44	=44	=44	=44	=44
(<8B#X/L	2F#\]	.	16dd#/LL	.
.	.	.	16f#/	.
8c#/)	.	.	16ee/	.
.	.	.	16f#/JJ	.
8G#'/	.	.	16b/LL	.
.	.	.	16f#/	.
8A#X'/J	.	.	16cc#/	.
.	.	.	16f#/JJ	.
=45	=45	=45	=45	=45
*	*ped	*	*	*
(8Bn/	[2F#\	.	16dd#\LL)	.
.	.	.	(16f#\	.
4d#/	.	.	16b\	.
.	.	.	16dd#\JJ	.
.	.	.	16ff#\LL	.
.	.	.	16b\	.
8g#/	.	.	16dd#\	.
.	.	.	16ff#\JJ	.
=46	=46	=46	=46	=46
8f#/L)	8F#\]	.	16bb\LL	.
.	.	.	16dd#\	.
8d#'/	8ryy	.	16ff#\	.
.	.	.	16bb\JJ	.
8G#'/	4ryy	.	16ddd#\LL	.
.	.	.	16ff#\	.
8E'/J	.	.	16bb\	.
.	.	.	16ddd#\JJ	.
=47	=47	=47	=47	=47
*	*Xped	*	*	*
8FF#/ 8F#/	8ryy	.	8fff#'\)	.
(4e/	[4.F#\	.	16fff##X\LL	.
.	.	.	16ff#\	.
.	.	.	16ggg#\	.
.	.	.	16ff#\	.
8c#/)	.	.	16eee\	.
.	.	.	16ff#\JJ	.
=48	=48	=48	=48	=48
(<8B#X/L	2F#\]	.	16ddd#\LL	.
.	.	.	16ff#\	.
8c#/)	.	.	16eee\	.
.	.	.	16ff#\JJ	.
8G#'</	.	.	16bb\LL	.
.	.	.	16ff#\	.
8A#X'</J	.	.	16ccc#\	.
.	.	.	16ff#\JJ	.
!!LO:LB:g=original
=49	=49	=49	=49	=49
*xywh-21:405,1000,2370,497	*xywh-21:405,1000,2370,497	*	*xywh-21:405,1000,2370,497	*
*	*ped	*	*	*
(8Bn/	[2F#\	.	16ddd#\LL	.
.	.	.	(16ff#\	.
4d#/	.	.	16bb\	.
.	.	.	16ddd#\JJ	.
.	.	.	16fff#'\LL)	.
.	.	.	(16dd#\	.
8g#/	.	.	16ff#\	.
.	.	.	16bb\JJ	.
=50	=50	=50	=50	=50
8f#/L)	2F#\]	.	16ddd#'\LL)	.
.	.	.	(16b\	.
8d#'</	.	.	16dd#\	.
.	.	.	16ff#\JJ	.
8B'</	.	.	16bb'\LL)	.
.	.	.	(16b\	.
8An'</J	.	.	16dd#\	.
*	*Xped	*	*	*
.	.	.	16ff#\JJ	.
=51	=51	=51	=51	=51
!	!	!	!LO:TX:b:t=crescen-do:ext2=cd:problem=dynamics with extention lines	!
(4G#/	[2E\	.	8bb'\)	.
.	.	.	(16ggg#\LL	<
.	.	.	16gg#\	.
8A#X/L	.	.	16ggg#\	.
.	.	.	16gg#\	.
8B#X/J	.	.	16fff#\	.
.	.	.	16ff#\JJ	.
=52	=52	=52	=52	=52
8c#/L	2E\]	.	16eee\LL	.
.	.	.	16ee\	.
8d#/	.	.	16ddd#\	.
.	.	.	16dd#\JJ	.
8e/	.	.	16ccc#\LL	.
.	.	.	16cc#\	.
8G#/J)	.	.	16ccc##X\	.
.	.	.	16cc##X\JJ)	[[
=53	=53	=53	=53	=53
(4G#/	2D#\	.	(16ddd#\LL	.
.	.	.	16dd#\	.
.	.	.	16ccc#X\	.
.	.	.	16cc#X\JJ	.
4F##X/	.	.	16bb\LL	.
.	.	.	16b\	.
.	.	.	16aa#X\	.
.	.	.	16a#X\JJ	.
=54	=54	=54	=54	=54
4F#X/	2Dn\	.	16ccc#\LL	.
.	.	.	16cc#\	.
.	.	.	16bb\	.
.	.	.	16b\JJ	.
[4B/)	.	.	16aa#X\LL	.
.	.	.	16a#X\	.
.	.	.	16gg#\	.
.	.	.	16g#\JJ)	.
!!LO:LB:g=original
=55	=55	=55	=55	=55
*xywh-21:428,1439,2363,490	*xywh-21:428,1439,2363,490	*	*xywh-21:428,1439,2363,490	*
8B/L]	[2C#\	.	(16ff#\LL	.
.	.	.	16f#\	.
(<8A#X/	.	.	16gg#\	.
.	.	.	16g#\JJ	.
8f#/	.	.	16aa#X\LL	.
.	.	.	16a#X\	.
8d#/J	.	.	16bb\	.
.	.	.	16b\JJ	.
=56	=56	=56	=56	=56
8c#/L	4C#\]	.	16bb#X\LL	.
.	.	.	16b#X\	.
8B#X/)	.	.	16ccc#\	.
.	.	.	16cc#\JJ	.
(<8Bn/	4C#\	.	16ddd#\LL	.
.	.	.	16dd#\	.
8G#/J	.	.	16eee#X\	.
.	.	.	16ee#X\JJ	.
*v	*v	*	*	*
=57	=57	=57	=57
8F#\L) 8A#X\	.	8ff#\) 8fff#\	<
(8E#X\	.	8r	.
8G#\	.	4r	.
8F#\J	.	.	.
=58	=58	=58	=58
8E#X\L	.	2r	.
8F#\	.	.	[
8qA#X/	.	.	>
8G#\	.	.	.
8F#\J)	.	.	]
=59	=59	=59	=59
16FF#\LL	.	8r	.
16F#\	.	.	.
!	!	!LO:TX:b:i:t=leggiero	!
16g#\	.	(4ee^\ 4eee\	.
16F#\JJ	.	.	.
16g#\LL	.	.	.
16F#\	.	.	.
16e\	.	8cc#\) 8ccc#\	.
16F#\JJ	.	.	.
=60	=60	=60	=60
16d#\LL	.	(8b#X\L 8bb#X\	.
16F#\	.	.	.
16e\	.	8cc#\) 8ccc#\	.
16F#\JJ	.	.	.
16B\LL	.	8g#'\ 8gg#\	.
16F#\	.	.	.
16c#\	.	8a#X'\J 8aa#X\	.
16F#\JJ	.	.	.
=61	=61	=61	=61
*^	*	*	*
*	*xywh-21:428,1439,2363,490	*	*	*
*ped	*	*	*	*
16d#\LL	4ryy	.	8b\ 8bb\	.
16F#\	.	.	.	.
16B\	.	.	(4dd#\ 4ddd#\	.
16d#\JJ	.	.	.	.
16g#\LL	4g#/	.	.	.
16d#\	.	.	.	.
16B\	.	.	8gg#\ 8ggg#\	.
16F#\JJ	.	.	.	.
!!LO:LB:g=original
=62	=62	=62	=62	=62
*xywh-21:399,1882,2413,515	*xywh-21:399,1882,2413,515	*	*xywh-21:399,1882,2413,515	*
4f#/	16f#\LL	.	8ff#'\L) 8fff#\	.
.	16d#\	.	.	.
.	16B\	.	8dd#'\ 8ddd#\	.
.	16F#\JJ	.	.	.
4ryy	16f#\LL	.	8b'\ 8bb\	.
.	16d#\	.	.	.
.	16B\	.	8g#'\J 8gg#\	.
.	16F#\JJ	.	.	.
*Xped	*	*	*	*
*v	*v	*	*	*
=63	=63	=63	=63
16FF#\LL	.	8f#\ 8ff#\	.
16F#\	.	.	.
16f##X\	.	(4ee^\ 4eee\	.
16F#\JJ	.	.	.
16g#\LL	.	.	.
16F#\	.	.	.
16e\	.	8cc#\) 8ccc#\	.
16F#\JJ	.	.	.
=64	=64	=64	=64
16d#\LL	.	(8b#X\L 8bb#X\	.
16F#\	.	.	.
16e\	.	8cc#\) 8ccc#\	.
16F#\JJ	.	.	.
16B\LL	.	8g#'\ 8gg#\	.
16F#\	.	.	.
16c#\	.	8a#X'\J 8aa#X\	.
16F#\JJ	.	.	.
=65	=65	=65	=65
*^	*	*	*
*xywh-21:399,1882,2413,515	*xywh-21:399,1882,2413,515	*	*xywh-21:399,1882,2413,515	*
*ped	*	*	*	*
16d#\LL	4ryy	.	8b\ 8bb\	.
16F#\	.	.	.	.
16B\	.	.	(4dd#\ 4ddd#\	.
16d#\JJ	.	.	.	.
16g#\LL	4g#/	.	.	.
16d#\	.	.	.	.
16B\	.	.	8gg#\ 8ggg#\	.
16F#\JJ	.	.	.	.
=66	=66	=66	=66	=66
4f#/	16f#\LL	.	8ff#'\L) 8fff#\	.
.	16d#\	.	.	.
.	16B\	.	8dd#'\ 8ddd#\	.
.	16F#\JJ	.	.	.
4ryy	16f#\LL	.	8b'\ 8bb\	.
.	16d#\	.	.	.
.	16B\	.	8an'\J 8aan\	.
.	16F#\JJ	.	.	.
*v	*v	*	*	*
=67	=67	=67	=67
!	!	!LO:TX:b:i:t=espressivo molto	!
16B#X\LL	.	(4g#\ 4gg#\	.
16d#\	.	.	.
16B#\	.	.	.
16F#\JJ	.	.	.
16B#\LL	.	8a#X\L 8aa#X\	.
16d#\	.	.	.
16B#\	.	8b#X\J 8bb#X\	.
16F#\JJ	.	.	.
!!LO:LB:g=original
=68	=68	=68	=68
*xywh-21:376,2346,2411,459	*	*xywh-21:376,2346,2411,459	*
16c#\LL	.	8cc#\L 8ccc#\	.
16e\	.	.	.
16c#\	.	8dd#\ 8ddd#\	.
16G#\JJ	.	.	.
16E\LL	.	8.ee\) 8.eee\	.
16G#\	.	.	.
16c#\	.	.	.
16e\JJ	.	16g#\Jk 16gg#\	.
=69	=69	=69	=69
16A#X\LL	.	(4g#\ 4gg#\	.
16c#\	.	.	.
16A#\	.	.	.
16E\JJ	.	.	.
16A#\LL	.	[4gn\ [4ggn\	.
16c#\	.	.	.
16A#\	.	.	.
16E\JJ	.	.	.
=70	=70	=70	=70
16A#X\LL	.	4g\] 4gg\]	.
16c#\	.	.	.
16A#\	.	.	.
16E\JJ	.	.	.
16A#\LL	.	4f#\) 4ff#\	.
16c#\	.	.	.
16A#\	.	.	.
16E\JJ	.	.	.
=71	=71	=71	=71
16An\LL	.	(4fn\ 4ffn\	.
16cn\	.	.	.
16A\	.	.	.
16E-X\JJ	.	.	.
16A\LL	.	8gn\L 8ggn\	.
16c\	.	.	.
16A\	.	8a\J 8aa\	.
16E-\JJ	.	.	.
=72	=72	=72	=72
16B-X\LL	.	8b-X\L 8bb-X\	.
16dn\	.	.	.
16B-\	.	8ccn\ 8cccn\	.
16Fn\JJ	.	.	.
16Dn\LL	.	8.ddn\) 8.dddn\	.
16F\	.	.	.
16B-\	.	.	.
16d\JJ	.	16fn\Jk 16ffn\	.
=73	=73	=73	=73
16Gn\LL	.	(4fn\ 4ffn\	.
16B-X\	.	.	.
16G\	.	.	.
16C#X\JJ	.	.	.
16G\LL	.	[4e/ [4ee/	.
16B-\	.	.	.
16G\	.	.	.
16C#\JJ	.	.	.
!!LO:LB:g=original
=74	=74	=74	=74
*xywh-21:414,2776,2382,472	*	*xywh-21:414,2776,2382,472	*
16Gn\LL	.	4e/] 4ee/]	.
16B-X\	.	.	.
16G\	.	.	.
16C#\JJ	.	.	.
16G\LL	.	4e-X/) 4ee-X/	.
16B-\	.	.	.
16G\	.	.	.
16C#\JJ	.	.	.
=75	=75	=75	=75
16F#\LL	.	(4dn/ 4ddn/	<
16A\	.	.	.
16F#\	.	.	.
16Dn\JJ	.	.	.
16Cn\LL	.	8en\L 8een\	.
16D\	.	.	.
16F#\	.	8f#\J 8ff#\	.
16A\JJ	.	.	.
=76	=76	=76	=76
16Gn\LL	.	8gn\L 8ggn\	.
16B\	.	.	.
16G\	.	8a\ 8aa\	.
16Dn\JJ	.	.	.
16BB\LL	.	8.b\) 8.bb\	.
16D\	.	.	.
16G\	.	.	.
16B\JJ	.	16e\Jk 16ee\	.
=77	=77	=77	=77
16F#\LL	.	(4dn/ 4ddn/	.
16A\	.	.	.
16F#\	.	.	.
16Dn\JJ	.	.	.
16Cn\LL	.	8e\L 8ee\	.
16D\	.	.	.
16F#\	.	8f#\J 8ff#\	.
16A\JJ	.	.	.
=78	=78	=78	=78
16Gn\LL	.	8gn\L 8ggn\	.
16B\	.	.	.
16G\	.	8a\ 8aa\	.
16Dn\JJ	.	.	.
16BB\LL	.	8.b\) 8.bb\	.
16D\	.	.	.
16G\	.	.	.
16B\JJ	.	16e\Jk 16ee\	.
=79	=79	=79	=79
16Gn\LL	.	4dn/ 4ddn/	f
16B\	.	.	.
16G\	.	.	.
16BB\JJ	.	.	.
16F#\LL	.	[4b^\ [4bb\	.
16B\	.	.	.
16F#\	.	.	.
16AA\JJ	.	.	.
!!LO:LB:g=original
=80	=80	=80	=80
*xywh-21:403,3237,2334,490	*	*xywh-21:403,3237,2334,490	*
16E#X\LL	.	4b\] 4bb\]	.
16B\	.	.	.
16E#\	.	.	.
16GG#X\JJ	.	.	.
16F#\LL	.	(4dn/ 4ddn/	>
16B\	.	.	.
16F#\	.	.	.
16FF#\JJ	.	.	.
=81	=81	=81	=81
*ped	*	*	*
16C#/LL	.	4c#/ 4cc#/	] pp
16G#/	.	.	.
16C#/	.	.	.
16EE#X/JJ	.	.	.
16C#/LL	.	[4b\) [4bb\	.
16EE#/	.	.	.
16C#/	.	.	.
16EE#/JJ	.	.	.
=82	=82	=82	=82
16C#/LL	.	4b\] 4bb\]	.
16G#/	.	.	.
16C#/	.	.	.
16EE#X/JJ	.	.	.
16C#/LL	.	(4B/ 4b/	.
16EE#/	.	.	.
16C#/	.	.	.
16EE#/JJ	.	.	.
*Xped	*	*	*
=83	=83	=83	=83
16C#/LL	.	8A#X/L) 8a#X/	f
16Gn/	.	.	.
16C#/	.	(8c#/ 8cc#/	.
16EEn/JJ	.	.	.
16C#/LL	.	8d#/ 8dd#/	.
16G/	.	.	.
16C#/	.	8e/J 8ee/	.
16EE/JJ	.	.	.
=84	=84	=84	=84
16BB#X/LL	.	8g#/L 8gg#/	.
16F#/	.	.	.
16BB#/	.	8f#/ 8ff#/	.
16DD#/JJ	.	.	.
16C#/LL	.	(8e'/ 8ee/	.
16E/	.	.	.
16C#/	.	8c#'/J)) 8cc#/	.
16EE/JJ	.	.	.
=85	=85	=85	=85
16D#/LL	.	(8c#/L 8cc#/	.
16F#/	.	.	.
16D#/	.	8B/ 8b/	.
16FF#/JJ	.	.	.
16Dn/LL	.	8.A#X/ 8.a#X/	.
16E#X/	.	.	.
16D/	.	.	.
16FF#/JJ	.	16G#/Jk) 16g#/	.
!!LO:PB:g=original
=86	=86	=86	=86
*xywh-22:757,454,2344,541	*	*xywh-22:757,454,2344,541	*
16C#/LL	.	(>4.G#/ 4.g#/	.
16En/	.	.	.
16C#/	.	.	.
16FF#/JJ	.	.	.
16C#/LL	.	.	.
16E/	.	.	.
16C#/	.	8F#/ 8f#/	.
16FF#/JJ	.	.	.
=87	=87	=87	=87
*	*	*^	*
*	*	*	*xywh-22:757,454,2344,541	*
16F#\LL	.	4dd#/)	4d#/	ff
16B\	.	.	.	.
16F#\	.	.	.	.
16AAn\JJ	.	.	.	.
16F#\LL	.	[4bb^/	16b\LL	.
16B\	.	.	16ff#\	.
16F#\	.	.	16dd#\	.
16AA\JJ	.	.	[16b\JJ	.
=88	=88	=88	=88	=88
16E#X\LL	.	4b/] 4bb/]	16gg#\LL	.
16B\	.	.	16ddn\	.
16E#\	.	.	16b\	.
16GG#\JJ	.	.	16g#\JJ	.
16F#\LL	.	(4ddn/	16dn\LL	.
16B\	.	.	16g#\	.
16F#\	.	.	16a#X\	.
16FF#\JJ	.	.	16b\JJ	.
=89	=89	=89	=89	=89
16C#\LL	.	16c#/LL 16cc#/	4ryy	pp
16G#\	.	16g#/	.	.
16C#\	.	16a#X/	.	.
16EE#X\JJ	.	16b/JJ	.	.
16C#/LL	.	[4bb/	16b\LL	.
16EE#/	.	.	16gg#\	.
16C#/	.	.	16cc#\	.
16EE#/JJ	.	.	[>16b\JJ	.
=90	=90	=90	=90	=90
*	*	*	*^	*
*	*	*	*	*xywh-22:757,454,2344,541	*
16C#/LL	.	4b/] 4bb/]	16gg#\LL)	4b\	.
16G#/	.	.	16cc#\	.	.
16C#/	.	.	16b\	.	.
16EE#X/JJ	.	.	16g#\JJ	.	.
16C#/LL	.	(4b/	16B\LL	4ryy	.
16EE#/	.	.	16c#\	.	.
16C#/	.	.	16g#\	.	.
16EE#/JJ	.	.	16b\JJ	.	.
*	*	*v	*v	*v	*
=91	=91	=91	=91
16C#/LL	.	8A#X/L) 8a#X/	f
16Gn/	.	.	.
16C#/	.	(8c#/ 8cc#/	.
16EEn/JJ	.	.	.
16C#/LL	.	8d#/ 8dd#/	.
16G/	.	.	.
16C#/	.	8e/J) 8ee/	.
16EE/JJ	.	.	.
!!LO:LB:g=original
=92	=92	=92	=92
*xywh-22:764,948,2324,438	*	*xywh-22:764,948,2324,438	*
16BB#X/LL	.	(8g#/L 8gg#/	.
16F#/	.	.	.
16BB#/	.	8f#/ 8ff#/	.
16DD#/JJ	.	.	.
16C#/LL	.	8e'/ 8ee/	.
16E/	.	.	.
16C#/	.	8c#'/J) 8cc#/	.
16EE/JJ	.	.	.
=93	=93	=93	=93
16D#/LL	.	(8c#/L 8cc#/	.
16F#/	.	.	.
16D#/	.	8B/) 8b/	.
16FF#/JJ	.	.	.
16Dn/LL	.	8.A#X/ 8.a#X/	.
16E#X/	.	.	.
16D/	.	.	.
16FF#/JJ	.	16G#/Jk 16g#/	.
=94	=94	=94	=94
16C#/LL	.	4.e/ 4.ee/	.
16En/	.	.	.
16C#/	.	.	.
16FF#/JJ	.	.	.
16C#/LL	.	.	.
16E/	.	.	.
16C#/	.	8A#X/ 8a#X/	.
16FF#/JJ	.	.	.
=95	=95	=95	=95
*	*	*^	*
*	*	*	*xywh-22:764,948,2324,438	*
(4An\	.	16ryy	4ryy	.
.	.	(>16cn/LL	.	p
.	.	16d#/	.	.
.	.	16f#/JJ	.	.
4G#\	.	8.cc#X^/L	16cc#X\LL	.
.	.	.	16dn\	.
.	.	.	16e#X\	.
.	.	16b/Jk)	16b\JJ	.
=96	=96	=96	=96	=96
4Gn\	.	16r	4ryy	.
.	.	(>16A#X/LL	.	.
.	.	16c#/	.	.
.	.	16en/JJ	.	.
4F#\)	.	8.b^/L	16b\LL	.
.	.	.	16cn\	.
.	.	.	16d#X\	.
.	.	16an/Jk)	16an\JJ	.
!!LO:LB:g=original
=97	=97	=97	=97	=97
*xywh-22:739,1377,2364,493	*	*xywh-22:739,1377,2364,493	*xywh-22:739,1377,2364,493	*
(4E\	.	16r	4ryy	.
!	!	!	!	!LO:HP:a
.	.	(>16Gn/LL	.	<
.	.	16A#X/	.	.
.	.	16c#/JJ	.	.
4BB#X/	.	8.gn^/L	16gn\LL	.
.	.	.	16An\	.
.	.	.	16d#\	.
.	.	16f#/Jk)	16f#\JJ	.
=98	=98	=98	=98	=98
4C#/	.	8.f#^/L	16f#\LL	.
.	.	.	16G#X\	.
.	.	.	16c#\	.
.	.	16e/Jk	16e\JJ	.
!	!	!LO:TX:t=P:problem=mixed beam	!	!
4FF#/)	.	8.d#^/L	16d#\LL	.
.	.	.	16E</	.
.	.	.	16A#X</	.
.	.	16c#/Jk	16c#\JJ	[
*	*	*clefF4	*	*
=99	=99	=99	=99	=99
(4BB/	.	16r	4ryy	pp
.	.	(16Dn\LL	.	.
.	.	16E#X\	.	.
.	.	16G#\JJ	.	.
4AA#X/	.	8.d#X^/L	16d#X\LL	.
.	.	.	16En\	.
.	.	.	16Gn\	.
.	.	16c#/Jk)	16c#\JJ	.
=100	=100	=100	=100	=100
4AAn/	.	16r	4ryy	.
.	.	(16Cn\LL	.	.
.	.	16D#X\	.	.
.	.	16F#\JJ	.	.
4GG#/	.	8.c#X^/L	16c#X\LL	.
.	.	.	16Dn\	.
.	.	.	16E#X\	.
.	.	16B/Jk)	16B\JJ	.
=101	=101	=101	=101	=101
4GGn/	.	16r	4ryy	.
.	.	(>16AA#X/LL	.	<
.	.	16C#X/	.	.
.	.	16En/JJ	.	.
4FF#/)	.	8.B^/L	16B\LL	.
.	.	.	16Cn\	.
.	.	.	16D#X\	.
.	.	16An/Jk)	16An\JJ	.
!!LO:LB:g=original
=102	=102	=102	=102	=102
*xywh-22:774,1826,2326,506	*	*xywh-22:774,1826,2326,506	*xywh-22:774,1826,2326,506	*
(4FFn/	.	(8.B^/L	16B\LL	.
.	.	.	16Cn\	.
.	.	.	16D#\	.
.	.	16A/Jk	16A\JJ	.
4EE/	.	8.B^/L	16B\LL	.
.	.	.	16C\	.
.	.	.	16E\	.
.	.	16A/Jk)	16A\JJ	.
=103	=103	=103	=103	=103
4DD#/	.	(8.B^/L	16B\LL	[ >
.	.	.	16Cn\	.
.	.	.	16F#\	.
.	.	16A/Jk	16A\JJ	.
4DDn/	.	8.B^/L	16B\LL	.
.	.	.	16C\	.
.	.	.	16F#\	.
.	.	16A/Jk	16A\JJ	.
=104	=104	=104	=104	=104
4CC#/	.	8.B^/L	16B\LL	.
.	.	.	16C#X\	.
.	.	.	16F#\	.
.	.	16A/Jk	16A\JJ	.
4CCn/	.	8.B^/L	16B\LL	.
.	.	.	16Dn\	.
.	.	.	16F#\	.
.	.	16A/Jk	16A\JJ	.
*	*	*v	*v	*
=105	=105	=105	=105
8BBB/)	.	16B'\LL)	] pp
!	!	!LO:TX:b:i:t=leggiero	!
.	.	(16D#\	.
8r	.	16F#\	.
.	.	16G#\JJ	.
4r	.	16A\LL	.
.	.	16B\	.
.	.	16c#\	.
.	.	16e\JJ	.
=106	=106	=106	=106
8.r	.	16d#'\LL)	.
.	.	(16F#\	.
.	.	16A\	.
!	!	!LO:TX:b:i:t=marcato	!
16BB\ 16F#\ 16A\	.	16B\JJ	.
*	*	*clefG2	*
[4BB\ [4F#\ [4A\	.	16c#/LL	.
.	.	16d#/	.
.	.	16e/	.
.	.	16g#/JJ	.
=107	=107	=107	=107
8BB\] 8F#\] 8A\]	.	16f#'/LL)	.
.	.	(16c#/	.
8r	.	16d#/	.
.	.	16e/JJ	.
4r	.	16f#/LL	.
.	.	16g#/	.
.	.	16a/	.
.	.	16cc#/JJ	.
!!LO:LB:g=original
=108	=108	=108	=108
*xywh-22:766,2265,2349,493	*	*xywh-22:766,2265,2349,493	*
8.r	.	16b'/LL)	.
.	.	(16d#/	.
.	.	16f#/	.
16F#\ 16A\ 16B\ 16d#\	.	16g#/JJ	.
[4F#\ [4A\ [4B\ [4d#\	.	16a\LL	.
.	.	16b\	.
.	.	16cc#\	.
.	.	16ee\JJ	.
=109	=109	=109	=109
8F#\] 8A\] 8B\] 8d#\]	.	16dd#'/LL)	.
.	.	(16f#/	.
8r	.	16a/	.
.	.	16b/JJ	.
4r	.	16cc#\LL	.
.	.	16dd#\	.
.	.	16ee\	.
.	.	16gg#\JJ	.
=110	=110	=110	=110
!	!	!	!LO:HP:t=crescendo un poco
8.r	.	16ff#'\LL)	<
.	.	(16cc#\	.
.	.	16dd#\	.
*clefG2	*	*	*
16B/ 16f#/ 16a/	.	16ee\JJ	.
[4B/ [>4f#/ [4a/	.	16ff#\LL	.
.	.	16gg#\	.
.	.	16aa\	.
.	.	16ccc#\JJ	.
=111	=111	=111	=111
2B/_ 2f#/_> 2a/_	.	16bb'\LL)	.
.	.	(16dd#\	.
.	.	16ff#\	.
.	.	16gg#\JJ	.
.	.	16aa\LL	.
.	.	16bb\	.
.	.	16ccc#\	.
.	.	16eee\JJ	.
=112	=112	=112	=112
2B/_ 2f#/_> 2a/_	.	16ddd#'\LL)	.
.	.	(16ff#\	.
.	.	16aa\	.
.	.	16bb\JJ	.
.	.	16ccc#\LL	.
.	.	16ddd#\	.
.	.	16eee\	.
.	.	16ggg#\JJ	.
=113	=113	=113	=113
8B/] 8f#/] 8a/]	.	16fff#'\LL)	.
.	.	(16aa#X\	.
8r	.	16bb\	.
.	.	16eee\JJ	.
4r	.	16ddd#\LL)	.
.	.	(16gg#\	.
.	.	16aan\	.
.	.	16ccc#\JJ	.
*clefF4	*	*	*
!!LO:LB:g=original
=114	=114	=114	=114
*xywh-22:751,2731,2379,448	*	*xywh-22:751,2731,2379,448	*
2r	.	16bb\LL)	.
.	.	(16cc##X\	.
.	.	16dd#\	.
.	.	16gg#\JJ	.
.	.	16ff#\LL)	.
.	.	(16a#X\	.
.	.	16b\	.
.	.	16ee\JJ	.
=115	=115	=115	=115
2r	.	16dd#\LL)	.
.	.	(16g#\	.
.	.	16an\	.
.	.	16cc#\JJ	.
.	.	16b/LL)	.
.	.	(16c##X/	.
.	.	16d#/	.
.	.	16g#/JJ	.
=116	=116	=116	=116
2r	.	16f#/LL)	.
.	.	(16A#X/	.
.	.	16B/	.
.	.	16e/JJ	.
.	.	16d#/LL)	.
.	.	(16A#/	.
.	.	16B/	.
.	.	16d#/JJ	.
=117	=117	=117	=117
2r	.	16c#/LL)	.
.	.	(16A#X/	.
.	.	16B/	.
.	.	16d#/JJ	.
.	.	16c#/LL	>
.	.	16A#/	.
.	.	16B/	.
.	.	16d#/JJ	.
=118	=118	=118	=118
2r	.	16c#/LL	.
.	.	16A#X/	.
.	.	16B/	.
.	.	16e/JJ	.
.	.	16c#/LL	.
.	.	16A#/	.
.	.	16B/	.
.	.	16e/JJ)	.
=119	=119	=119	=119
2r	.	(16c#/LL	.
.	.	16A#X/	.
.	.	16B/	.
.	.	16f#/JJ	.
.	.	16c#/LL	.
.	.	16A#/	.
.	.	16B/	.
.	.	16f#/JJ	.
!!LO:LB:g=original
=120	=120	=120	=120
*xywh-22:756,3173,2376,506	*	*xywh-22:756,3173,2376,506	*
2r	.	16c#/LL	.
.	.	16A#X/	.
.	.	16B/	.
.	.	16f#/JJ	.
.	.	16c#/LL	.
.	.	16d#/	.
.	.	16e/	.
.	.	16f#/JJ)	.
=121	=121	=121	=121
*	*	*^	*
*	*	*	*xywh-22:756,3173,2376,506	*
[2EE/	.	(8g#/L	16e\LL	p
.	.	.	16B\	.
.	.	8b/	16g#\	.
.	.	.	16B\JJ	.
.	.	8e/	16c#\LL	.
.	.	.	16B\	.
.	.	8f#/J	16d#\	.
.	.	.	16B\JJ	.
=122	=122	=122	=122	=122
16EE/]	.	8a/	16f#\LL	.
16r	.	.	16B\JJ	.
!LO:TUP:b	!	!	!	!
(24BB/LL	.	4g#/)	4e\	.
24C#/	.	.	.	.
24D#/JJ	.	.	.	.
16E\LL	.	.	.	.
16F#\	.	.	.	.
16G#\	.	8e/	8ryy	.
16E\JJ)	.	.	.	.
*	*	*v	*v	*
=123	=123	=123	=123
.	.	8qb/	<
(16c#\LL	.	(16a/LL	.
16B\	.	16g#/	.
16c#\	.	16a/	.
16d#\JJ	.	16b/JJ	.
16e\LL	.	16cc#\LL	.
16c#\	.	16dd#\	.
16B\	.	16ee\	.
16A\JJ	.	16ff#\JJ)	.
=124	=124	=124	=124
.	.	(8qg#/	.
16E\LL 16G#\	.	8gg#'\)	.
16B\	.	.	.
16e\	.	(4b\	.
16f#\JJ	.	.	.
16g#\LL	.	.	.
16f#\	.	.	.
16e\	.	8b#X\	[
16d#\JJ	.	.	.
=125	=125	=125	=125
!	!	!LO:TX:b:i:t=leggiero	!
16c#\LL)	.	16cc#\LL	p
16d#\	.	16a\	.
16c#\	.	16ee\	.
16F#\JJ	.	16ff#\JJ	.
16c#\LL	.	8gg#'\L)	.
16e\	.	.	.
16c#\	.	([<8g#\J	.
16E\JJ	.	.	.
!!LO:PB:g=original
=126	=126	=126	=126
*xywh-23:412,476,2352,506	*	*xywh-23:412,476,2352,506	*
16G#\LL	.	16g#/LL]	.
16A#X\	.	16e/	.
16G#\	.	16b/	.
16C#\JJ	.	16cc#/JJ	.
16G#\LL	.	8dd#\L)	.
16B\	.	.	.
16G#\	.	(8e#X\J 8ddn\	.
16BB\JJ	.	.	.
=127	=127	=127	=127
*	*	*^	*
*	*	*	*xywh-23:412,476,2352,506	*
(16F#\LL	.	8cc#/L)	8f#\L	<
16A\	.	.	.	.
16F#\	.	(16g#/L	8c#\J	.
16AA\JJ	.	16f#/JJ	.	.
16F#\LL	.	8e/L	4B#X\	.
16G#\	.	.	.	.
16F#\	.	16d#/L	.	.
16GG#\JJ	.	16e/JJ	.	[
*	*	*v	*v	*
=128	=128	=128	=128
8E\)	.	16d#/LL)	.
.	.	16G#/	>
(4CC#^/	.	16c#/	.
.	.	16e/JJ	.
.	.	16d#/LL	.
.	.	16A/	.
8BBB/)	.	16d#/	.
.	.	16f#/JJ	]
=129	=129	=129	=129
*	*	*^	*
*	*	*	*xywh-23:412,476,2352,506	*
[2EE/	.	(8g#/L	16e\LL	.
.	.	.	16B\	.
.	.	8b/J	16g#\	.
.	.	.	16B\JJ	.
.	.	8e/L	16c#\LL	.
.	.	.	16B\	.
.	.	8f#/J	16d#\	.
.	.	.	16B\JJ	.
=130	=130	=130	=130	=130
16EE/]	.	8a/	16f#\LL	.
16r	.	.	16B\JJ	.
!LO:TUP:b:klamra łukowa	!	!	!	!
(24BB/LL	.	4g#/) 4e/	4ryy	.
24C#/	.	.	.	.
24D#/JJ	.	.	.	.
16E\LL	.	.	.	.
16F#\	.	.	.	.
16G#\	.	8e/	8ryy	.
16E\JJ)	.	.	.	.
*	*	*v	*v	*
=131	=131	=131	=131
.	.	(8qb/	<
(16c#\LL	.	(16a/LL)	.
16B\	.	16g#/	.
16c#\	.	16a/	.
16d#\JJ	.	16b/JJ	.
16e\LL	.	16cc#\LL	.
16c#\	.	16dd#\	.
16B\	.	16ee\)	.
16A\JJ)	.	16ff#\JJ	.
!!LO:LB:g=original
=132	=132	=132	=132
*xywh-23:410,948,2367,474	*	*xywh-23:410,948,2367,474	*
.	.	(8qg#/	.
(16E\LL 16G#\	.	8gg#'\)	.
16B\	.	.	.
16e\	.	(4b'\	.
16f#\JJ	.	.	.
16g#\LL	.	.	[
16f#\	.	.	.
16e\	.	8b#X\	.
16d#\JJ)	.	.	.
=133	=133	=133	=133
!	!	!LO:TX:b:i:t=leggiero	!
(16c#\LL	.	16cc#\LL	.
16d#\	.	16a\	.
16c#\	.	16ee\	.
16F#\JJ	.	16ff#\JJ	.
16B\LL	.	8gg#'\L)	.
16dn\	.	.	.
16B\	.	(16a#X\L	.
16E#X\JJ)	.	16b\JJ	.
=134	=134	=134	=134
16A#X\LL	.	16cc#\LL)	.
16c#\	.	(16f#\	.
16A#\	.	16dd#\	.
16En\JJ	.	16ee\JJ	.
16An\LL	.	8ff#'\L)	.
16cn\	.	.	.
16A\	.	(16g#\L	.
16D#\JJ	.	16an\JJ	.
=135	=135	=135	=135
16G#\LL	.	16b/LL	<
16B\	.	16e/	.
16G#\	.	16dd#/	.
16Dn\JJ	.	16ee/JJ	.
16A\LL	.	16a/LL	.
16c#\	.	16e/	.
16A\	.	16dd#/	.
16C#\JJ	.	16ee/JJ)	.
=136	=136	=136	=136
16G#\LL	.	(>16g#/LL	.
16B\	.	16dn/	.
16G#\	.	16cc#/	.
16BB\JJ	.	16ddn/JJ	.
16F#\LL	.	16f#/LL	.
16A\	.	16c#/	.
16F#\	.	16b#X/	.
16AA\JJ	.	16cc#/JJ)	.
=137	=137	=137	=137
*	*	*^	*
*	*	*	*xywh-23:410,948,2367,474	*
(16F#\LL	.	16r	16ryy	.
!	!	!LO:TX:a:i:t=espress.	!	!
16A\	.	(8.c#/	16c#\LL	.
16F#\	.	.	16d#\	.
16BB\JJ	.	.	16a\JJ	.
16F#\LL	.	8.g#/L	16g#\LL	.
16A\	.	.	16B\	.
16F#\	.	.	16d#\	.
16BB\JJ)	.	16g#/Jk	16g#\JJ	.
*	*	*v	*v	*
!!LO:LB:g=original
=138	=138	=138	=138
*xywh-23:397,1424,2347,486	*	*xywh-23:397,1424,2347,486	*
(16E\LL	.	16f#/LL	>
16G#\	.	16B/JJ	.
16E\	.	8e/)	.
16BB\JJ	.	.	.
8EE/)	.	8r	]
!	!	!	!LO:DY:rj
8r	.	8G#/ 8g#/	f
=139	=139	=139	=139
!	!	!LO:TX:b:i:t=marcato	!
8r	.	4.e/ 4.ee/	.
8CC#'/L 8C#/	.	.	.
8DD#'/ 8D#/	.	.	.
8EE'/J 8E/	.	8G#/ 8g#/	.
=140	=140	=140	=140
8FF#'/L 8F#/	.	4.A/ 4.a/	.
8EE'/ 8E/	.	.	.
8DD#'/ 8D#/	.	.	.
8CC#'/J 8C#/	.	[8A/ [8a/	.
=141	=141	=141	=141
4.BBB#X/ 4.BB#X/	.	8A/L] 8a/]	.
.	.	8G#/J 8g#/	.
.	.	[4d#/ [4dd#/	.
(8AAA/ 8AA/	.	.	.
=142	=142	=142	=142
8GGG#/L) 8GG#/	.	8d#/] 8dd#/]	.
8FFF#/ 8FF#/	.	(4dn/ 4ddn/	.
8EEE#X/J 8EE#X/	.	.	.
8r	.	8c#/) 8cc#/	.
=143	=143	=143	=143
8r	.	4.a\ 4.aa\	.
8FF#/L 8F#/	.	.	.
8GG#/ 8G#/	.	.	.
8AA/J 8A/	.	8c#/ 8cc#/	.
=144	=144	=144	=144
8BB/L 8B/	.	4.dn/ 4.ddn/	.
8AA/ 8A/	.	.	.
8GG#/ 8G#/	.	.	.
8FF#/J 8F#/	.	[8d/ [8dd/	.
=145	=145	=145	=145
4.EE#X/ 4.E#X/	.	8d/L] 8dd/]	.
.	.	8c#/J 8cc#/	.
.	.	[4g#\ [4gg#\	.
8DDn/ 8Dn/	.	.	.
!!LO:LB:g=original
=146	=146	=146	=146
*xywh-23:425,1853,2352,514	*	*xywh-23:425,1853,2352,514	*
8CC#/L 8C#/	.	8g#\L] 8gg#\]	.
(8BBB/ 8BB/	.	(8gn\ 8ggn\	>
8AAA#X/) 8AA#X/	.	8f#\) 8ff#\	.
8CC#/J 8C#/	.	[8e\J [8ee\	]]
=147	=147	=147	=147
!	!	!LO:TX:b:i:t=dolce	!
4.BBB#X/ 4.BB#X/	.	8e/L] 8ee/]	.
.	.	8d#/J 8dd#/	.
.	.	(>[4A/ [4a/	.
(8FF#/ 8F#/	.	.	.
=148	=148	=148	=148
4.EE/) 4.E/	.	8A/L] 8a/]	.
.	.	(8G#/J 8g#/	.
.	.	[4c#/ [4cc#/	.
(8CC#/ 8C#/	.	.	.
=149	=149	=149	=149
4.AAA#X/) 4.AA#X/	.	8c#/L] 8cc#/]	.
.	.	8Gn/J) 8gn/	.
.	.	(>[4F#/ [4f#/	.
(8EE/ 8E/	.	.	.
=150	=150	=150	=150
4.DD#/) 4.D#/	.	8F#/L] 8f#/]	.
.	.	(8F#/J) 8f#/	.
.	.	[4A/ [4a/	.
(8CC#/ 8C#/	.	.	.
=151	=151	=151	=151
4.BBB#X/) 4.BB#X/	.	8A/L] 8a/]	.
.	.	8G#/J) 8g#/	.
*	*	*clefF4	*
.	.	[4C#\ [4c#\	.
(8BBBn/ 8BBn/	.	.	.
=152	=152	=152	=152
4AAA#X/) 4AA#X/	.	8C#\L] 8c#\]	.
.	.	(8C#\ 8c#\	.
(4GGG#/ 4GG#/	.	8D#\ 8d#\	.
.	.	[8E\J [8e\	.
=153	=153	=153	=153
4FFF##X/ 4FF##X/	.	8E\]) 8e\]	.
.	.	(4D#\ 4d#\	.
*8ba	*	*	*
4DDD#/	.	.	.
.	.	8C#\ 8c#\	.
*X8ba	*	*	*
!!LO:LB:g=original
=154	=154	=154	=154
*xywh-23:410,2302,2355,486	*	*xywh-23:410,2302,2355,486	*
8GGG#/)	.	8BB\L) 8B\	.
8r	.	8AA#X'\ 8A#X\	.
8r	.	8GG#'\J 8G#\	.
8GG#/ 8G#/	.	8r	f
*	*	*clefG2	*
=155	=155	=155	=155
4.E\ 4.e\	.	8r	.
!	!	!LO:TX:b:i:t=marcato	!
.	.	8cc#'\L 8ccc#\	.
.	.	8dd#'\ 8ddd#\	.
8GG#/ 8G#/	.	8ee'\J 8eee\	.
=156	=156	=156	=156
4.AA\ 4.A\	.	8ff#'\L 8fff#\	.
.	.	8ee'\ 8eee\	.
.	.	8dd#'\ 8ddd#\	.
[8AA\ [8A\	.	8cc#'\J 8ccc#\	.
=157	=157	=157	=157
8AA/L] 8A/]	.	4.b#X\ 4.bb#X\	.
8GG#/J 8G#/	.	.	.
[4D#\ [4d#\	.	.	.
.	.	8a\ 8aa\	.
=158	=158	=158	=158
8D#\] 8d#\]	.	8g#\L 8gg#\	.
4Dn\ 4dn\	.	8f#\ 8ff#\	.
.	.	8e#X\J 8ee#X\	.
8C#\ 8c#\	.	8r	.
=159	=159	=159	=159
4.A\ 4.a\	.	8r	.
*	*	*8va	*
.	.	8ff#\L 8fff#\	.
.	.	8gg#\ 8ggg#\	.
8C#\ 8c#\	.	8aa\J 8aaa\	.
=160	=160	=160	=160
4.Dn\ 4.dn\	.	8bb\L 8bbb\	.
.	.	8aa\ 8aaa\	.
.	.	8gg#\ 8ggg#\	.
[8D\ [8d\	.	8ff#\J 8fff#\	.
=161	=161	=161	=161
8D\L] 8d\]	.	4.ee#X/ 4.eee#X/	.
8C#\J 8c#\	.	.	.
[4G#\ [4g#\	.	.	.
*	*	*X8va	*
.	.	8ddn\ 8dddn\	.
!!LO:LB:g=original
=162	=162	=162	=162
*xywh-23:420,2728,2327,501	*	*xywh-23:420,2728,2327,501	*
!	!	!	!LO:HP:a
8G#\L] 8g#\]	.	8cc#\L 8ccc#\	>
8Gn\ 8gn\	.	8b\ 8bb\	.
8F#\ 8f#\	.	8a#X\ 8aa#X\	.
([8E\J [8e\	.	8cc#\J 8ccc#\	]]
=163	=163	=163	=163
8E\L] 8e\]	.	4.b#X\ 4.bb#X\	.
8D#\J) 8d#\	.	.	.
([4AA\ [4A\	.	.	.
.	.	(8ff#\ 8fff#\	.
=164	=164	=164	=164
8AA\L] 8A\]	.	4.ee\) 4.eee\	.
8GG#\J) 8G#\	.	.	.
([4C#\ [4c#\	.	.	.
.	.	(8cc#\ 8ccc#\	.
=165	=165	=165	=165
8C#\L] 8c#\]	.	4.a#X\) 4.aa#X\	.
8GGn\J) 8Gn\	.	.	.
[4FF#/ [4F#/	.	.	.
.	.	(8ee\ 8eee\	.
=166	=166	=166	=166
8FF#/L] 8F#/]	.	4.dd#\) 4.ddd#\	.
8FF#'/J 8F#/	.	.	.
([4AA\ [4A\	.	.	.
.	.	8cc#\ 8ccc#\	.
=167	=167	=167	=167
8AA\L] 8A\]	.	4.b#X\ 4.bb#X\	.
8GG#\J) 8G#\	.	.	.
[4CC#/ [4C#/	.	.	.
.	.	(8bn\ 8bbn\	.
=168	=168	=168	=168
8CC#\L] 8C#\]	.	4a#X\ 4aa#X\	.
8C#'\ 8c#\	.	.	.
8D#'\ 8d#\	.	4g#\ 4gg#\	.
8E'\J 8e\	.	.	.
=169	=169	=169	=169
4D#\ 4d#\	.	8f##X/L) 8ff##X/	.
.	.	8c#'/ 8cc#/	>
4DD#/ 4D#/	.	8B'/ 8b/	.
.	.	8A#X'/J 8a#X/	]]
!!LO:LB:g=original
=170	=170	=170	=170
*xywh-23:397,3157,2342,549	*	*xywh-23:397,3157,2342,549	*
8GG#/	.	8G#/ 8g#/	.
*clefG2	*	*	*
16g#/LL	.	8r	p <
16G#/	.	.	.
16g#/	.	4r	.
16G#/	.	.	.
16g#/	.	.	.
16G#/JJ	.	.	[
=171	=171	=171	=171
16g#/LL	.	8r	.
16G#/	.	.	.
16a/	.	4ff#^\ 4fff#\	mf
16G#/JJ	.	.	.
16a/LL	.	.	.
16G#/	.	.	.
16f#/	.	(8dd#\ 8ddd#\	.
16G#/JJ	.	.	.
=172	=172	=172	=172
16e#X/LL	.	8cc##X\L 8ccc##X\	.
16G#/	.	.	.
16f#/	.	8dd#\) 8ddd#\	.
16G#/JJ	.	.	.
16d#/LL	.	8b#X'\ 8bb#X\	.
16G#/	.	.	.
16c#/	.	8a'\J 8aa\	.
16G#/JJ	.	.	.
=173	=173	=173	=173
16B#X/LL	.	8g#'\ 8gg#\	.
16G#/	.	.	.
16a/	.	(4ff#^\ 4fff#\	p
16G#/JJ	.	.	.
16a/LL	.	.	.
16G#/	.	.	.
16f#/	.	8dd#\ 8ddd#\	.
16G#/JJ	.	.	.
=174	=174	=174	=174
16d#/LL	.	8b#X\L) 8bb#X\	.
16G#/	.	.	.
16c#/	.	8a'\ 8aa\	.
16G#/JJ	.	.	.
8B#X'/	.	8g#'\J 8gg#\	.
8r	.	16Bn/LL	f
.	.	16c#/JJ	.
*clefF4	*	*	*
=175	=175	=175	=175
!LO:TX:t=P:problem=tu powinien wrócić klucz basowy	!	!	!
8r	.	(8dnM/L	.
4GG#/ 4G#/	.	16c#/L	.
.	.	16B/JJ)	.
.	.	(8ddnM\L	.
[8FF#/ [8F#/	.	16cc#\L	.
.	.	16b\JJ	.
!!LO:PB:g=original
=176	=176	=176	=176
*xywh-24:762,402,2374,501	*	*xywh-24:762,402,2374,501	*
8FF#/L] 8F#/]	.	8gg#\L)	>
16GG#/L 16G#/	.	8b'\J	.
16FF#/JJ 16F#/	.	.	.
8EE#X/L 8E#X/	.	(8ddn\L	.
8CC#/J 8C#/	.	16cc#\L	.
.	.	16b\JJ	]]
=177	=177	=177	=177
8FF#/L 8F#/	.	16cc#'\LL)	p
.	.	(16a\	.
8CC#/J 8C#/	.	16cc#\	.
.	.	16aa\JJ	.
8EE#X/L 8E#X/	.	16gg#\LL)	<
.	.	16ccc#\	.
8CC#/J 8C#/	.	16ggg#\	.
.	.	16ccc#\JJ	.
=178	=178	=178	=178
8FF#/L 8F#/	.	16aaa\LL	.
.	.	16ccc#\	.
8CC#/J 8C#/	.	16aa\	.
.	.	16cc#\JJ	[
(4EE/ 4E/	.	16gg#\LL	>
.	.	16g#\	.
.	.	16cc#\	.
.	.	16gg#\JJ	]]
=179	=179	=179	=179
8DD#/) 8D#/	.	8f##X\ 8cc#\ 8ff##X\	.
16e\LL	.	4cc#^\ 4ccc#\	mf
16D#\	.	.	.
16e\	.	.	.
16D#\	.	.	.
16c#\	.	(8a#X\ 8aa#X\	.
16D#\JJ	.	.	.
=180	=180	=180	=180
16B#X\LL	.	8g##X\L 8gg##X\	.
16D#\	.	.	.
16c#\	.	8a#X\) 8aa#X\	.
16D#\JJ	.	.	.
16A#X\LL	.	8f##X'\ 8ff##X\	.
16D#\	.	.	.
16G#\	.	8e'\J 8ee\	.
16D#\JJ	.	.	.
=181	=181	=181	=181
16F##X\LL	.	8d#/ 8dd#/	.
16D#\	.	.	.
16e\	.	(4cc#\ 4ccc#\	p
16D#\JJ	.	.	.
16e\LL	.	.	.
16D#\	.	.	.
16c#\	.	8a#X\ 8aa#X\	.
16D#\JJ	.	.	.
!!LO:LB:g=original
=182	=182	=182	=182
*xywh-24:760,866,2391,481	*	*xywh-24:760,866,2391,481	*
16A#X\LL	.	8f##X\L) 8ff##X\	.
16D#\	.	.	.
16G#\	.	8e'\ 8ee\	.
16D#\JJ	.	.	.
8F##X\	.	8d#'\J 8dd#\	.
8r	.	16f#X/LL	f
.	.	16g#/JJ	.
=183	=183	=183	=183
8r	.	8anM/L	.
4D#\ 4d#\	.	16g#/L	.
.	.	16f#/JJ	.
.	.	(8aaM\L	.
[8C#\ [8c#\	.	16gg#\L	.
.	.	16ff#\JJ	.
=184	=184	=184	=184
8C#\L] 8c#\]	.	8ddd#'\L)	>
16D#\L 16d#\	.	8ff#'\J	.
16C#\JJ 16c#\	.	.	.
8BB#X\L 8B#X\	.	(8aa\L	.
8GG#\J 8G#\	.	16gg#\L	.
.	.	16ff#\JJ	]]
=185	=185	=185	=185
8C#\L 8c#\	.	16gg#\LL)	p
.	.	(16ee\	.
8GG#\J 8G#\	.	16gg#\	.
.	.	16eee\JJ	.
*	*	*8va	*
8BB#X\L 8B#X\	.	16ddd#\LL)	<
.	.	16ggg#\	.
8GG#\J 8G#\	.	16dddd#\	.
.	.	16ggg#\JJ	.
=186	=186	=186	=186
8C#\L 8c#\	.	16eeee\LL	.
.	.	16ggg#\	.
8GG#\J 8G#\	.	16eee\	.
.	.	16gg#\JJ	[
*	*	*X8va	*
((4AA#X^\ 4A#X\	.	16ggn\LL	>
.	.	16ee\	.
.	.	16gg\	.
.	.	16ccc#\JJ	]]
=187	=187	=187	=187
8BB\L)) 8B\	.	16ff#\LL	p <
.	.	16ddn\	.
8FF#\J 8F#\	.	16ff#\	.
.	.	16dddn\JJ	.
*	*	*8va	*
8AA#X/L 8A#X/	.	16ccc#\LL	.
.	.	16fff#\	.
8FF#/J 8F#/	.	16cccc#\	.
.	.	16fff#\JJ	.
*	*	*X8va	*
!!LO:LB:g=original
=188	=188	=188	=188
*xywh-24:750,1322,2379,493	*	*xywh-24:750,1322,2379,493	*
*	*	*8va	*
8BB\L 8B\	.	16ddddn\LL	.
.	.	16fff#\	.
8FF#\J 8F#\	.	16dddn\	.
.	.	16ff#\JJ	.
*	*	*X8va	*
(>4GG#^>/ 4G#/	.	16ffn\LL	.
.	.	16dd\	.
.	.	16ff\	.
.	.	16bb\JJ	.
=189	=189	=189	=189
8AA/L) 8A/	.	16ee\LL	.
.	.	16ccn\	.
8EE/J 8E/	.	16ee\	.
.	.	16cccn\JJ	.
*	*	*8va	*
8GG#/L 8G#/	.	16bb\LL	.
.	.	16eee\	.
8EE/J 8E/	.	16bbb\	.
.	.	16eee\JJ	.
=190	=190	=190	=190
8AA/L 8A/	.	16ccccn\LL	.
.	.	16eee\	.
8EE/J 8E/	.	16cccn\	.
.	.	16ee\JJ	.
*	*	*X8va	*
8GGn/L 8Gn/	.	16bb-X\LL	.
.	.	16b-X\	.
8CCn/J 8Cn/	.	16ee\	.
.	.	16bb-\JJ	.
=191	=191	=191	=191
8FFn/L 8Fn/	.	16aa\LL	.
.	.	16a\	.
8CCn/J 8Cn/	.	16ccn\	.
.	.	16aa\JJ	.
8EE/L 8E/	.	16ggn\LL	.
.	.	16cccn\	.
8CC/J 8C/	.	16gggn\	.
.	.	16ccc\JJ	.
=192	=192	=192	=192
8FFn/L 8Fn/	.	16aaa\LL	.
.	.	16cccn\	.
8CCn/J 8Cn/	.	16aa\	.
.	.	16ccn\JJ	.
8EE/L 8E/	.	16gg#X\LL	.
.	.	16g#X\	.
8CC/J 8C/	.	16cc\	.
.	.	16gg#\JJ	.
=193	=193	=193	=193
!	!	!	!LO:HP:t=dimin.
8FFn/L 8Fn/	.	(16aa\LL	>
.	.	16a\	.
8CCn/J 8Cn/	.	16ccn\	.
.	.	16aa\JJ	>
8FF/ 8F/	.	16cc#X\LL	.
.	.	16a\	.
8r	.	16cc#\	.
.	.	16ffn\JJ	]
!!LO:LB:g=original
=194	=194	=194	=194
*xywh-24:777,1804,2364,456	*	*xywh-24:777,1804,2364,456	*
2r	.	16a/LL	>
.	.	16fn/	.
.	.	16a/	.
.	.	16ccn/JJ	.
.	.	16f/LL	.
.	.	16cn/	.
.	.	16f/	.
.	.	16a/JJ)	]
=195	=195	=195	=195
4r	.	(>16cn/LL	.
.	.	16A/	.
.	.	16c/	.
.	.	16a/JJ	.
(16Cn/LL	.	16c/LL	pp
16Fn/	.	16A/	.
16C/	.	16c/	.
16FFn/JJ	.	16a/JJ	.
=196	=196	=196	=196
16Cn/LL	.	16cn/LL	.
16Fn/	.	16A/	.
16C/	.	16c/	.
16FFn/JJ	.	16a/JJ	.
16C/LL	.	16c/LL	.
16Gn/	.	16B-X/	.
16C/	.	16c/	.
16EE/JJ)	.	16b-X/JJ)	.
=197	=197	=197	=197
(16Cn/LL	.	(>16cn/LL	<
16Fn/	.	16A/	.
16C/	.	16c/	.
16FFn/JJ	.	16a/JJ	.
16C/LL	.	16c/LL	.
16F/	.	16A/	.
16C/	.	16c/	.
16FF/JJ	.	16a/JJ	.
=198	=198	=198	=198
16Cn/LL	.	16cn/LL	.
16Fn/	.	16A/	.
16C/	.	16c/	[
16FFn/JJ	.	16a/JJ	.
16C/LL	.	16c^/LL	.
16F#X/	.	16A/	.
16C/	.	16c/	.
16DD#X/JJ)	.	16a/JJ)	.
=199	=199	=199	=199
(16BB/LL	.	(>16B/LL	pp
16E/	.	16G#X/	.
16BB/	.	16B/	.
16EE/JJ	.	16g#X/JJ	.
16BB/LL	.	16B/LL	.
16E/	.	16G#/	.
16BB/	.	16B/	.
16EE/JJ)	.	16g#/JJ)	.
!!LO:LB:g=original
=200	=200	=200	=200
*xywh-24:812,2220,2346,518	*	*xywh-24:812,2220,2346,518	*
(16BB/LL	.	(>16B/LL	.
16E/	.	16G#/	.
16BB/	.	16B/	.
16EE/JJ	.	16g#/JJ	.
16BB/LL	.	16B/LL	.
16F#/	.	16A/	.
16BB/	.	16B/	.
16DD#/JJ)	.	16a/JJ)	.
=201	=201	=201	=201
(16BB/LL	.	(>16B/LL	<
16E/	.	16G#/	.
16BB/	.	16B/	.
16EE/JJ	.	16g#/JJ	.
16BB/LL	.	16B/LL	.
16E/	.	16G#/	.
16BB/	.	16B/	.
16EE/JJ	.	16g#/JJ	.
=202	=202	=202	=202
16BB/LL	.	16B/LL	.
16E/	.	16G#/	.
16BB/	.	16B/	.
16EE/JJ	.	16g#/JJ	.
16FF#/LL	.	16A#X^/LL	[
16C#/	.	16E/	.
16FF#/	.	16A#/	.
16CC#/JJ)	.	16e/JJ)	.
*	*	*clefF4	*
=203	=203	=203	=203
(16FF#/LL	.	(16F#\LL	<
16BB/	.	16D#\	.
16FF#/	.	16F#\	.
16BBB/JJ	.	16d#\JJ	.
16FF#/LL	.	16F#\LL	.
16BB/	.	16D#\	.
16FF#/	.	16F#\	.
16BBB/JJ	.	16d#\JJ	.
=204	=204	=204	=204
16FF#/LL	.	16F#\LL	.
16BB/	.	16D#\	.
16FF#/	.	16F#\	.
16BBB/JJ	.	16d#\JJ	[
16FF#/LL	.	16F#\LL	>
16C#/	.	16E\	.
16FF#/	.	16F#\	.
16AAA#X/JJ)	.	16e\JJ)	]]
=205	=205	=205	=205
(16FF#/LL	.	(16F#\LL	<
16BB/	.	16D#\	.
16FF#/	.	16F#\	.
16BBB/JJ	.	16d#\JJ	.
16FF#/LL	.	16F#\LL	.
16BB/	.	16D#\	.
16FF#/	.	16F#\	.
16BBB/JJ	.	16d#\JJ	[
!!LO:LB:g=original
=206	=206	=206	=206
*xywh-24:792,2691,2361,496	*	*xywh-24:792,2691,2361,496	*
16FF#/LL	.	16F#\LL	<
16BB/	.	16D#\	.
16FF#/	.	16F#\	.
16BBB/JJ	.	16d#\JJ	.
16FF#^/LL	.	16F#^\LL	[
16C#/	.	16E\	.
16FF#/	.	16F#\	.
16AAA#X/JJ)	.	16e\JJ)	.
=207	=207	=207	=207
(16FF#/LL	.	(16F#\LL	.
16BB/	.	16D#\	.
16FF#/	.	16F#\	.
16BBB/JJ	.	16B\JJ	.
16FF#^/LL	.	16F#^\LL	.
16C#/	.	16E\	.
16FF#/	.	16F#\	.
16AAA#X/JJ	.	16e\JJ	.
=208	=208	=208	=208
16FF#/LL	.	16F#\LL	.
16BB/	.	16D#\	.
16FF#/	.	16F#\	.
16BBB/JJ	.	16d#\JJ	.
16FF#^/LL	.	16F#^\LL	.
16C#/	.	16E\	.
16FF#/	.	16F#\	.
16AAA#X/JJ)	.	16e\JJ	.
=209	=209	=209	=209
8BB/	.	8D#'\)	.
16BB/LL	.	8r	pp
16BBB/JJ	.	.	.
16BB/LL	.	4r	.
16BBB/	.	.	.
16BB/	.	.	.
16BBB/JJ	.	.	.
=210	=210	=210	=210
16BB/LL	.	4r	.
16BBB/	.	.	.
16BB/	.	.	.
16BBB/JJ	.	.	.
16BB/LL	.	8r	.
16BBB/	.	.	.
*	*	*clefG2	*
16BB/	.	(8B/	.
16BBB/JJ	.	.	.
=211	=211	=211	=211
16BB/LL	.	8e/L 8g#/	.
16BBB/	.	.	.
16BB/	.	8d#/ 8b/	.
16BBB/JJ	.	.	.
16BB/LL	.	8c#/ 8e/	.
16BBB/	.	.	.
16BB/	.	8cn/J 8f#/	.
16BBB/JJ	.	.	.
!!LO:LB:g=original
=212	=212	=212	=212
*xywh-24:780,3133,2346,526	*	*xywh-24:780,3133,2346,526	*
(16BB/LL	.	8B/ 8a/	.
16BBB/	.	.	.
16BB/	.	4e/) 4g#/	.
16C#/JJ	.	.	.
16D#\LL	.	.	.
16E\	.	.	.
16F#\	.	8e/	.
16G#\JJ	.	.	.
=213	=213	=213	=213
.	.	8qb/	.
*	*	*^	*
*	*	*	*xywh-24:780,3133,2346,526	*
16c#\LL	.	(16a/LL	4ryy	.
16E\	.	16g#/	.	.
16BB\	.	16a/	.	.
16E\JJ	.	16b/JJ	.	.
16c#\LL	.	16cc#/LL	4a\	.
16BB\	.	16dd#/	.	.
16cn\	.	16ee/	.	.
16BB\JJ	.	16ff#/JJ	.	.
*	*	*v	*v	*
=214	=214	=214	=214
16B\LL	.	8g#'\) 8ee\ 8gg#\	.
16E\	.	.	.
16BB\	.	(4g#/ 4b/	.
16E\JJ	.	.	.
16B\LL	.	.	.
16E\	.	.	.
16B\	.	8e'/) 8g#/	.
16E\JJ)	.	.	.
=215	=215	=215	=215
.	.	8qb/	.
*	*	*^	*
*	*	*	*xywh-24:780,3133,2346,526	*
(16c#\LL	.	(16a/LL	4ryy	.
16E\	.	16g#/	.	.
16BB\	.	16a/	.	.
16E\JJ	.	16b/JJ	.	.
16c#\LL	.	16cc#/LL	4a\	.
16BB\	.	16dd#/	.	.
16cn\	.	16ee/	.	.
16BB\JJ	.	16ff#/JJ	.	.
*	*	*v	*v	*
=216	=216	=216	=216
16B\LL	.	8g#'\) 8ee\ 8gg#\	.
16E\	.	.	.
16BB\	.	(4g#/ 4b/	.
16E\JJ	.	.	.
16B\LL	.	.	.
16E\	.	.	.
16B\	.	8e'/) 8g#/	.
16E\JJ)	.	.	.
=217	=217	=217	=217
16A#X\LL	.	16r	.
16Gn\	.	(16cc#\LL	.
16E\	.	16ee\	.
16BB\JJ	.	16ff#\JJ	.
16A#\LL	.	8ggn'/L)	.
16G\	.	.	.
16E\	.	8c#'/J 8gn/	.
[<16BB\JJ	.	.	.
!!LO:PB:g=original
=218	=218	=218	=218
*	*	*^	*
*xywh-25:404,467,2338,539	*	*xywh-25:404,467,2338,539	*xywh-25:404,467,2338,539	*
4BB\] 4F#\ 4An\	.	8f#/	16d#\LL	.
.	.	.	16c##X\	.
.	.	4ccn/	16d#\	.
.	.	.	16cn\JJ	.
4BBB^^<</	.	.	16c\LL	.
.	.	.	16B\	.
.	.	8d#/	16c\	.
.	.	.	16A\JJ	.
*	*	*v	*v	*
=219	=219	=219	=219
16G#X\LL	.	16r	.
16E#X\	.	(16ee#X\LL	.
16Dn\	.	16bb\	.
16BB\JJ	.	16ccc#\JJ	.
!	!	!LO:TX:t=P:problem=mixed beam	!
16G#\LL	.	8dddn\L)	.
16E#\	.	.	.
16D\	.	8B'/J 8e#X/	.
[16BB\JJ	.	.	.
=220	=220	=220	=220
*	*	*^	*
*	*	*	*xywh-25:404,467,2338,539	*
4BB\] 4C#\ 4E\ 4A#X\	.	8en/	16en\LL	.
.	.	.	16d#\	.
.	.	4cc#/	16e\	.
.	.	.	16c#\JJ	.
4BBB^^<</	.	.	16c#\LL	.
.	.	.	16B#X\	.
.	.	8e/	16c#\	.
.	.	.	16A#X\JJ	.
*	*	*v	*v	*
=221	=221	=221	=221
16F#\LL	.	16r	.
*	*	*8va	*
16D#X\	.	16cccn\LL	.
16Cn\	.	16fff#\	.
16BB\JJ	.	16ggg#\JJ	.
!	!	!LO:TX:t=P:problem=mixed beam	!
16F#\LL	.	8aaa\L	.
16D#\	.	.	.
*	*	*X8va	*
16C\	.	8A/J 8d#/	.
[<16BB\JJ	.	.	.
=222	=222	=222	=222
*	*	*^	*
*	*	*	*xywh-25:404,467,2338,539	*
4BB\] 4E#X\ 4G#\	.	8dn/	16dn\LL	.
.	.	.	16c#\	.
.	.	4b/	16d\	.
.	.	.	16B\JJ	.
4BBB^^</	.	.	16B\LL	.
.	.	.	16A#X\	.
.	.	8d/	16B\	.
.	.	.	16G#\JJ	.
=223	=223	=223	=223	=223
4BB\ 4E\ 4Gn\	.	8c#X/	16c#X\LL	.
.	.	.	16B#X\	.
.	.	4cc#X/	16c#\	.
.	.	.	16A#X\JJ	.
[4BBB^^</	.	.	16e\LL	.
.	.	.	16d#\	.
.	.	8gn/	16e\	.
.	.	.	16c#\JJ	.
!!LO:LB:g=original
=224	=224	=224	=224	=224
*xywh-25:408,990,2351,457	*	*xywh-25:408,990,2351,457	*xywh-25:408,990,2351,457	*
4BBB/]	.	8c#/	16c#\LL	.
.	.	.	16B#X\	.
.	.	4a#X/	16c#\	.
.	.	.	16A#X\JJ	.
[4BBB^^</	.	.	16e\LL	.
.	.	.	16d#\	.
.	.	8gn/	16e\	.
.	.	.	16c#\JJ	.
=225	=225	=225	=225	=225
4BBB/]	.	4c#/	16c#\LL	.
.	.	.	16B#X\	.
.	.	.	16c#\	.
.	.	.	16A#X\JJ	.
[4BBB/	.	[4gn/	16A#\LL	.
.	.	.	16G##X\	.
.	.	.	16A#\	.
.	.	.	16Gn\JJ	.
=226	=226	=226	=226	=226
2BBB/_	.	4g/]	16A#X\LL	.
.	.	.	16G##X\	.
.	.	.	16A#\	.
.	.	.	16Gn\JJ	.
.	.	4A#X/	16G\LL	.
.	.	.	16F#\	.
.	.	.	16G\	.
.	.	.	16E\JJ	.
*	*	*v	*v	*
=227	=227	=227	=227
16BBB\LL]	.	[>4F#</ [>4B/	.
16BB\	.	.	.
16E\	.	.	.
16BB\JJ	.	.	.
8D#\	.	(16F#</LL] 16B/]	.
.	.	16F#</	.
8r	.	16G#</	.
.	.	16B</JJ	.
=228	=228	=228	=228
!	!	!LO:TX:t=P:problem=mixed beam	!
2r	.	16A</LL	.
.	.	16G#</	.
.	.	16A</	.
.	.	16e\JJ	.
.	.	16d#\LL	.
.	.	16A#X\	.
.	.	16B\	.
.	.	16an\JJ)	.
*clefG2	*	*	*
!!LO:LB:g=original
=229	=229	=229	=229
*xywh-25:410,1406,2334,449	*	*xywh-25:410,1406,2334,449	*
16r	.	[4f#/	.
(16B/LL	.	.	.
16e/	.	.	.
16B/JJ	.	.	.
8d#/)	.	(16f#/LL]	.
.	.	16e#X/	.
8r	.	16f#/	.
.	.	16b/JJ	.
=230	=230	=230	=230
2r	.	16a\LL	.
.	.	16g#\	.
.	.	16a\	.
.	.	16ee\JJ	.
.	.	16dd#\LL	.
.	.	16a#X\	.
.	.	16b\	.
.	.	16aa#X\JJ)	.
=231	=231	=231	=231
!	!	!LO:N:vis=4.	!
16r	.	[4ff#\	.
(16b\LL	.	.	.
16ee\	.	.	.
16b\JJ	.	.	.
8dd#\)	.	16ff#\LL]	.
.	.	(16ee#X\	.
8r	.	16ff#\	.
.	.	16aa\JJ	.
=232	=232	=232	=232
2r	.	16ff#\LL	.
.	.	16ee#X\	.
.	.	16ff#\	.
.	.	16aa\JJ	.
.	.	16ff#\LL	.
.	.	16ee#\	.
.	.	16ff#\	.
.	.	16aa\JJ)	.
=233	=233	=233	=233
2r	.	(16ff#\LL	.
.	.	16ee#X\	.
.	.	16ff#\	.
.	.	16aa\JJ	.
.	.	16ff#\LL	.
.	.	16dd#\	.
.	.	16ff#\	.
.	.	16aa\JJ	.
=234	=234	=234	=234
2r	.	16ff#\LL	.
.	.	16cc#\	.
.	.	16ff#\	.
.	.	16aa\JJ	.
.	.	16ff#\LL	.
.	.	16b\	.
.	.	16ee\	.
.	.	16ff#\JJ)	.
!!LO:LB:g=original
=235	=235	=235	=235
*	*	*^	*
*xywh-25:389,1807,2345,516	*	*xywh-25:389,1807,2345,516	*xywh-25:389,1807,2345,516	*
2r	.	(8gg#/L	16ee\LL	pp
.	.	.	16b\	.
.	.	8bb/	16gg#\	.
.	.	.	16b\JJ	.
.	.	8ee/	16cc#\LL	.
.	.	.	16b\	.
.	.	8ff#/J	16dd#\	.
.	.	.	16b\JJ	.
=236	=236	=236	=236	=236
8r	.	8aa/	16ff#\LL	.
.	.	.	16b\JJ	.
(24B/LL	.	4ryy	4gg#\) 4ee\	.
24c#/	.	.	.	.
24d#/JJ	.	.	.	.
16e/LL	.	.	.	.
16f#/	.	.	.	.
16g#/	.	8ryy	(8ee\	.
16e/JJ)	.	.	.	.
*	*	*v	*v	*
=237	=237	=237	=237
.	.	8qbb/	<
(16cc#\LL	.	16aa\LL	.
16b\	.	16gg#\	.
16cc#\	.	16aa\	.
16dd#\JJ	.	16bb\JJ	.
16ee\LL	.	16ccc#\LL	.
16cc#\	.	16ddd#\	.
16b\	.	16eee\	.
16a\JJ)	.	16fff#\JJ	.
=238	=238	=238	=238
.	.	(8qgg#/	.
(16e\LL 16g#\	.	8ggg#'\))	.
16b\	.	.	.
16ee\	.	(4bb\	.
16ff#\JJ	.	.	.
16gg#\LL	.	.	.
16ff#\	.	.	.
16ee\	.	8bb#X\)	[[
16dd#\JJ)	.	.	.
=239	=239	=239	=239
!	!	!LO:TX:b:i:t=leggiero	!
(16cc#\LL	.	(16ccc#\LL	.
16dd#\	.	16aa\	.
16cc#\	.	16eee\	.
16f#\JJ	.	16fff#\JJ	.
16cc#\LL	.	8ggg#'\L)	.
16ee\	.	.	.
16cc#\	.	([8gg#\J	.
16e\JJ)	.	.	.
=240	=240	=240	=240
(16g#/LL	.	16gg#\LL]	.
16a#X/	.	16ee\	.
16g#/	.	16bb\	.
16c#/JJ	.	16ccc#\JJ	.
16g#/LL	.	8ddd#'\L)	<
16b/	.	.	.
16g#/	.	(8ee#X\J 8bbn\	.
16B/JJ)	.	.	.
!!LO:LB:g=original
=241	=241	=241	=241
*	*	*^	*
*xywh-25:377,2275,2359,493	*	*xywh-25:377,2275,2359,493	*xywh-25:377,2275,2359,493	*
(16f#/LL	.	8ccc#/L)	8ff#\L	.
16a/	.	.	.	.
16f#/	.	(16gg#/L	8cc#\J	.
16A/JJ	.	16ff#/JJ	.	.
16f#/LL	.	8ee/L	4b#X\	.
16g#/	.	.	.	.
16f#/	.	16dd#/L	.	.
16G#/JJ	.	16ee/JJ	.	[
*	*	*v	*v	*
=242	=242	=242	=242
8e/)	.	16dd#\LL)	.
.	.	(16g#\	.
*clefF4	*	*	*
(4C#/	.	16cc#\	.
.	.	16ee\JJ	>
.	.	16g#/LL	.
.	.	16e/	.
8BB/)	.	16g#/	.
.	.	16ddn/JJ)	]]
=243	=243	=243	=243
*	*	*^	*
*	*	*	*xywh-25:377,2275,2359,493	*
!	!	!LO:TX:b:i:t=dolce	!	!
[2AA/	.	(8cc#/L	16cc#\LL	.
.	.	.	16e\	.
.	.	8ee/J	16cc#\	.
.	.	.	16e\JJ	.
.	.	8a/L	16f#\LL	.
.	.	.	16e\	.
.	.	8b/J	16g#\	.
.	.	.	16e\JJ	.
=244	=244	=244	=244	=244
16AA/]	.	8ddn/	16b\LL	.
16r	.	.	16e\JJ	.
!LO:TUP:a	!	!	!	!
(24E\LL	.	4cc#/) 4a/	4ryy	.
24F#\	.	.	.	.
24G#\JJ	.	.	.	.
16A\LL	.	.	.	.
16B\	.	.	.	.
16c#\	.	(8a/	8ryy	<
16A\JJ)	.	.	.	.
*	*	*v	*v	*
*clefG2	*	*	*
=245	=245	=245	=245
.	.	8qee/	.
(16f#/LL	.	16ddn\LL	.
16e/	.	16cc#\	.
16f#/	.	16dd\	.
16g#/JJ	.	16ee\JJ	.
16a/LL	.	16ff#\LL	.
16f#/	.	16gg#\	.
16e/	.	16aa\	.
16d#/JJ	.	16bb\JJ	.
=246	=246	=246	=246
.	.	(8qcc#/	.
16A/LL 16c#/	.	8ccc#'\))	.
16e/	.	.	.
16a/	.	(4ee\	.
16b/JJ	.	.	.
16cc#/LL	.	.	.
16b/	.	.	.
16a/	.	8ee#X\)	[
16g#/JJ)	.	.	.
!!LO:LB:g=original
=247	=247	=247	=247
*xywh-25:404,2729,2351,489	*	*xywh-25:404,2729,2351,489	*
!	!	!LO:TX:b:i:t=leggiero	!
16f#/LL	.	(16ff#\LL	.
16g#/	.	16ddn\	.
16f#/	.	16aa\	.
16B/JJ	.	16bb\JJ	.
16e/LL	.	8ccc#'\L)	.
16gn/	.	.	.
16e/	.	(16dd#X\L	.
16A#X/JJ	.	16ee\JJ	.
=248	=248	=248	=248
16d#/LL	.	16ff#\LL	.
16f#/	.	16b\	.
16d#/	.	16gg#\	.
16An/JJ	.	16aa\JJ	.
16dn/LL	.	8bb'\L)	.
16fn/	.	.	.
16d/	.	(16cc#\L	.
16G#/JJ	.	16ddn\JJ	.
*clefF4	*	*	*
=249	=249	=249	=249
!	!	!	!LO:HP:a:t=crescendo poco a poco
(16c#\LL	.	(16ee\LL)	<
16e\	.	16a\	.
16c#\	.	16gg#\	.
16Gn\JJ	.	16aa\JJ	.
16cn\LL	.	16dd#X\LL	.
16d#X\	.	16a\	.
16c\	.	16gg#\	.
16F#\JJ	.	16aa\JJ	.
=250	=250	=250	=250
16cn\LL	.	16ee\LL	.
16e\	.	16a\	.
16c\	.	16gg#\	.
16E\JJ	.	16aa\JJ	.
16A\LL	.	16ccn\LL	.
16c\	.	16a\	.
16A\	.	16ee#X\	.
16D#\JJ)	.	16ff#\JJ)	.
=251	=251	=251	=251
(16G#\LL	.	(16b/LL	.
16B\	.	16en/	.
16G#\	.	16dd#/	.
16Dn\JJ	.	16een/JJ	.
16Gn\LL	.	16a#X/LL	.
16A#X\	.	16e/	.
16G\	.	16dd#/	.
16C#\JJ	.	16ee/JJ	.
=252	=252	=252	=252
16Gn\LL	.	16b/LL	.
16B\	.	16e/	.
16G\	.	16dd#/	.
16BB\JJ	.	16ee/JJ	.
16E\LL	.	16gn/LL	.
16G\	.	16e/	.
16E\	.	16b#X/	.
16AA#X\JJ)	.	16cc#/JJ)	.
!!LO:LB:g=original
=253	=253	=253	=253
*xywh-25:406,3220,2332,491	*	*xywh-25:406,3220,2332,491	*
(16D#/LL	.	(16d#/LL	.
16F#/	.	16B/	.
16D#/	.	16a#X/	.
16AAn/JJ	.	16b/JJ	.
16E/LL	.	16e/LL	.
16G#/	.	16B/	.
16E/	.	16a#/	.
16GG#/JJ	.	16b/JJ	.
=254	=254	=254	=254
16BB/LL	.	16d#/LL	.
16D#/	.	16An/	.
16BB/	.	16g#/	.
16FF#/JJ	.	16an/JJ	.
16BB/LL	.	16B/LL	.
16E/	.	16G#/	.
16BB/	.	16f##X/	.
16EE/JJ)	.	16g#/JJ)	.
=255	=255	=255	=255
(<16FF#\LL	.	(>16A#X/LL	.
16C#\	.	16E</	.
16FF#\	.	16d#/	.
16CC#\JJ	.	16e/JJ	.
16FF#\LL	.	16A#/LL	.
16C#\	.	16E</	.
16FF#\	.	16d#/	.
16CC#\JJ	.	16e/JJ	.
=256	=256	=256	=256
16FF#\LL	.	16A#X/LL	.
16Cn\	.	16E</	.
16FF#\	.	16d#/	.
16CCn\JJ	.	16e/JJ	.
16FF#\LL	.	16A#/LL	.
16C\	.	16E</	.
16FF#\	.	16d#/	.
16CC\JJ	.	16e/JJ	.
=257	=257	=257	=257
8BBB/)	.	16d#/LL)	.
.	.	(16B/	>
8r	.	16d#/	.
.	.	16f#/JJ	.
4r	.	16b/LL	.
.	.	16d#/	.
.	.	16f#/	.
.	.	16b/JJ	]]
=258	=258	=258	=258
2r	.	16dd#/LL	.
.	.	16f#/	.
.	.	16b/	.
.	.	16dd#/JJ	.
.	.	16ff#\LL	.
.	.	16b\	.
.	.	16dd#\	.
.	.	16ff#\JJ	.
!!LO:PB:g=original
=259	=259	=259	=259
*^	*	*	*
*xywh-26:753,456,2349,571	*xywh-26:753,456,2349,571	*	*xywh-26:753,456,2349,571	*
*	*	*	*ped	*
!	!	!	!LO:TX:b:i:t=cantabile	!
!	!	!	!LO:TX:b:i:t=leggiero	!
8BB/	8ryy	.	8bb'\)	p
*clefG2	*	*	*	*
(4a/	[4.B\	.	(16bb\LL	.
.	.	.	16b\	.
.	.	.	16ccc#\	.
.	.	.	16b\	.
8f#/)	.	.	16aa\	.
.	.	.	16b\JJ	.
=260	=260	=260	=260	=260
(<8e#X/L	2B\]	.	16gg#\LL	.
.	.	.	16b\	.
8f#/)	.	.	16aa\	.
.	.	.	16b\JJ	.
*	*	*	*Xped	*
8c#'</	.	.	16ee\LL	.
.	.	.	16b\	.
8d#'</J	.	.	16ff#\	.
.	.	.	16b\JJ	.
=261	=261	=261	=261	=261
*	*	*	*ped	*
(8e/	[2B\	.	16gg#\LL)	.
.	.	.	(16b\	.
4g#/	.	.	16ee\	.
.	.	.	16gg#\JJ	.
.	.	.	16bb\LL	.
.	.	.	16ee\	.
8cc#/	.	.	16gg#\	.
.	.	.	16bb\JJ	.
=262	=262	=262	=262	=262
8b/L)	4.B\]	.	16eee\LL	.
.	.	.	16gg#\	.
8g#'</J	.	.	16bb\	.
.	.	.	16eee\JJ	.
*	*	*	*8va	*
8e'</L	.	.	16ggg#\LL	.
.	.	.	16bb\	.
8c#'</J	8ryy	.	16eee\	.
*	*	*	*Xped	*
.	.	.	16ggg#\JJ	.
*clefF4	*	*	*	*
=263	=263	=263	=263	=263
*	*	*	*ped	*
8BB/	8ryy	.	8bbb'\)	.
*clefG2	*	*	*	*
4a/	[4.B\	.	(16bbb#X\LL	.
.	.	.	16bb#X\	.
.	.	.	16cccc#\	.
.	.	.	16bb#\	.
8f#/	.	.	16aaa\	.
.	.	.	16bb#\JJ	.
=264	=264	=264	=264	=264
(<8e#X/L	2B\]	.	16ggg#\LL	.
.	.	.	16bb\	.
8f#/)	.	.	16aaa\	.
.	.	.	16bb\JJ	.
*	*	*	*Xped	*
8c#'</	.	.	16eee\LL	.
.	.	.	16bb\	.
8d#'</J	.	.	16fff#\	.
.	.	.	16bb\JJ	.
=265	=265	=265	=265	=265
*	*	*	*ped	*
8e/	[2B\	.	16ggg#'\LL)	.
.	.	.	(16bb\	.
4g#/	.	.	16eee\	.
.	.	.	16ggg#\JJ	.
.	.	.	16bbb'\LL)	<
.	.	.	(16gg#\	.
8cc#/	.	.	16bb\	.
.	.	.	16eee\JJ	.
!!LO:LB:g=original
=266	=266	=266	=266	=266
*xywh-26:770,988,2354,488	*xywh-26:770,988,2354,488	*	*xywh-26:770,988,2354,488	*
8b/L	2B\]	.	16ggg#'\LL)	.
.	.	.	(16ee\	.
8g#/	.	.	16gg#\	.
.	.	.	16bb\JJ	.
8e/	.	.	16eee'\LL)	.
.	.	.	(16ee\	.
*	*	*	*Xped	*
8dn/J	.	.	16gg#\	.
.	.	.	16bb\JJ	[[
=267	=267	=267	=267	=267
!	!	!	!LO:TX:b:t=cres-cen-do:ext2=cd:problem=dynamics with extention lines	!
4c#/	[2A\	.	8eee'\)	.
.	.	.	(16cccc#\LL	<
.	.	.	16ccc#\	.
8d#/L	.	.	16cccc#\	.
.	.	.	16ccc#\	.
8e#X/J	.	.	16bbb\	.
.	.	.	16bb\JJ	.
=268	=268	=268	=268	=268
8f#/L	2A\]	.	16aaa\LL	.
.	.	.	16aa\	.
8g#/	.	.	16ggg#\	.
.	.	.	16gg#\JJ	.
8a/	.	.	16fff#\LL	.
.	.	.	16ff#\	.
8c#/J	.	.	16fff##X\	.
.	.	.	16ff##X\JJ)	.
=269	=269	=269	=269	=269
4c#/	2G#\	.	16ggg#\LL	.
.	.	.	16gg#\	.
.	.	.	16fff#X\	.
.	.	.	16ff#X\JJ	.
4B#X/	.	.	16eee/LL	.
.	.	.	16ee/	.
.	.	.	16ddd#/	.
.	.	.	16dd#/JJ	.
=270	=270	=270	=270	=270
4Bn/	2Gn\	.	16fff#\LL	.
.	.	.	16ff#\	.
.	.	.	16eee\	[
.	.	.	16ee\JJ	.
4e/	.	.	16ddd#/LL	.
.	.	.	16dd#/	.
.	.	.	16ccc#/	.
.	.	.	16cc#/JJ	.
=271	=271	=271	=271	=271
(8e/L	[2F#\	.	(16bb/LL	.
.	.	.	16b/	.
8d#/	.	.	16ccc#/	.
.	.	.	16cc#/JJ	.
8b/	.	.	16ddd#/LL	.
.	.	.	16dd#/	.
8g#/J	.	.	16eee/	.
.	.	.	16ee/JJ	.
=272	=272	=272	=272	=272
8f#/L	4F#\]	.	16eee#X\LL	.
.	.	.	16ee#X\	.
8e#X/	.	.	16fff#\	.
.	.	.	16ff#\JJ	.
8en/	4F#\	.	16ggg#\LL	.
.	.	.	16gg#\	.
8c#/J	.	.	16aaa#X\	.
.	.	.	16aa#X\JJ)	.
*v	*v	*	*	*
!!LO:LB:g=original
=273	=273	=273	=273
*xywh-26:755,1439,2371,461	*	*xywh-26:755,1439,2371,461	*
*	*	*8va	*
8B/L 8d#/)	.	8bb\ 8bbb\	.
*	*	*X8va	*
(8A#X/	.	8r	.
8c#/	.	4r	>
8B/J	.	.	.
=274	=274	=274	=274
8A#X/L	.	2r	.
8B/	.	.	.
8qd#/)	.	.	.
8c#/	.	.	.
8B/J	.	.	]
*clefF4	*	*	*
=275	=275	=275	=275
(16BB\LL	.	8r	.
16B\JJ	.	.	.
*clefG2	*	*	*
*	*	*8va	*
!	!	!LO:TX:b:i:t=leggiero	!
16cc#/LL	.	4aa^\ 4aaa\	.
16B/	.	.	.
16cc#/	.	.	.
16B/	.	.	.
16a/	.	8ff#\ 8fff#\	.
16B/JJ	.	.	.
=276	=276	=276	=276
16g#/LL	.	(8ee#X/L 8eee#X/	.
16B/	.	.	.
16a/	.	8ff#/) 8fff#/	.
16B/JJ	.	.	.
16e/LL	.	8cc#'/ 8ccc#/	.
16B/	.	.	.
16f#/	.	8dd#'/J 8ddd#/	.
16B/JJ)	.	.	.
=277	=277	=277	=277
*^	*	*	*
*	*xywh-26:755,1439,2371,461	*	*	*
*	*	*	*ped	*
16g#/LL	4ryy	.	8ee/ 8eee/	.
16B/	.	.	.	.
16e/	.	.	(4gg#\ 4ggg#\	.
16g#/JJ	.	.	.	.
16cc#/LL	4cc#\	.	.	.
16g#/	.	.	.	.
16e/	.	.	8ccc#\ 8cccc#\	.
16B/JJ	.	.	.	.
=278	=278	=278	=278	=278
16b/LL	4b\	.	8bb\L) 8bbb\	.
16g#/	.	.	.	.
16e/	.	.	8gg#'\ 8ggg#\	.
16B/JJ	.	.	.	.
16b/LL	4ryy	.	8ee'\ 8eee\	.
16g#/	.	.	.	.
16e/	.	.	8cc#'\J 8ccc#\	.
*	*	*	*Xped	*
16B/JJ	.	.	.	.
*v	*v	*	*	*
*clefF4	*	*	*
=279	=279	=279	=279
16BB\LL	.	8b/ 8bb/	.
(16B\JJ	.	.	.
*clefG2	*	*	*
16b#X/LL	.	(4aa\ 4aaa\	.
16B/	.	.	.
16cc#/	.	.	.
16B/	.	.	.
16a/	.	8ff#\) 8fff#\	.
16B/JJ	.	.	.
!!LO:LB:g=original
=280	=280	=280	=280
*xywh-26:785,1880,2339,428	*	*xywh-26:785,1880,2339,428	*
16g#/LL	.	(8ee#X/L 8eee#X/	.
16B/	.	.	.
16a/	.	8ff#/) 8fff#/	.
16B/JJ	.	.	.
16e/LL	.	8cc#'/ 8ccc#/	.
16B/	.	.	.
16f#/	.	8dd#'/J 8ddd#/	.
16B/JJ)	.	.	.
=281	=281	=281	=281
*^	*	*	*
*	*xywh-26:785,1880,2339,428	*	*	*
*	*	*	*ped	*
16g#/LL	4ryy	.	8ee/ 8eee/	.
16B/	.	.	.	.
16e/	.	.	(4gg#\ 4ggg#\	.
16g#/JJ	.	.	.	.
16cc#/LL	4cc#\	.	.	.
16g#/	.	.	.	.
16e/	.	.	8ccc#\) 8cccc#\	.
16B/JJ	.	.	.	.
=282	=282	=282	=282	=282
16b/LL	4b\	.	(8bb\L 8bbb\	.
16g#/	.	.	.	.
16e/	.	.	8gg#\) 8ggg#\	.
16B/JJ	.	.	.	.
16b/LL	4b\	.	8ee\ 8eee\	.
16g#/	.	.	.	.
16e/	.	.	8ddn\J 8dddn\	.
16B/JJ	.	.	.	.
*v	*v	*	*	*
=283	=283	=283	=283
!	!	!LO:TX:b:i:t=espressivo molto	!
16e#X/LL	.	(4cc#/ 4ccc#/	.
16g#/	.	.	.
16e#/	.	.	.
16B/JJ	.	.	.
16e#/LL	.	8dd#X/L 8ddd#X/	.
16g#/	.	.	.
16e#/	.	8ee#X/J 8eee#X/	.
16B/JJ	.	.	.
=284	=284	=284	=284
16f#/LL	.	8ff#\L 8fff#\	.
16a/	.	.	.
16f#/	.	8gg#\ 8ggg#\	.
16c#/JJ	.	.	.
16A/LL	.	8.aa\) 8.aaa\	.
16c#/	.	.	.
16f#/	.	.	.
16a/JJ	.	16cc#\Jk 16ccc#\	.
=285	=285	=285	=285
16d#/LL	.	(4cc#/ 4ccc#/	.
16f#/	.	.	.
16d#/	.	.	.
16A/JJ	.	.	.
16d#/LL	.	[4ccn/ [4cccn/	.
16f#/	.	.	.
16d#/	.	.	.
16A/JJ	.	.	.
=286	=286	=286	=286
16d#/LL	.	4cc/] 4ccc/]	.
16f#/	.	.	.
16d#/	.	.	.
16A/JJ	.	.	.
16d#/LL	.	4b/) 4bb/	.
16f#/	.	.	.
16d#/	.	.	.
16A/JJ	.	.	.
*	*	*X8va	*
*clefF4	*	*	*
!!LO:LB:g=original
=287	=287	=287	=287
*xywh-26:765,2287,2371,443	*	*xywh-26:765,2287,2371,443	*
16dn\LL	.	(4b-X\ 4bb-X\	.
16fn\	.	.	.
16d\	.	.	.
16A-X\JJ	.	.	.
16d\LL	.	8ccn\L 8cccn\	.
16f\	.	.	.
16d\	.	8ddn\J 8dddn\	.
16A-\JJ	.	.	.
=288	=288	=288	=288
16e-X\LL	.	8ee-X\L 8eee-X\	.
16gn\	.	.	.
16e-\	.	8ffn\ 8fffn\	.
16Gn\JJ 16B-X\	.	.	.
16Gn\LL	.	8.ggn\ 8.gggn\	.
16B-\	.	.	.
16e-\	.	.	.
16g\JJ	.	16b-X\Jk) 16bb-X\	.
=289	=289	=289	=289
16cn\LL	.	(4b-X\ 4bb-X\	.
16e-X\	.	.	.
16c\	.	.	.
16F#X\JJ	.	.	.
16c\LL	.	[4a\ [4aa\	.
16e-\	.	.	.
16c\	.	.	.
16F#\JJ	.	.	.
=290	=290	=290	=290
16cn\LL	.	4a\] 4aa\]	.
16e-X\	.	.	.
16c\	.	.	.
16F#X\JJ	.	.	.
16c\LL	.	4a-X\) 4aa-X\	.
16e-\	.	.	.
16c\	.	.	.
16F#\JJ	.	.	.
=291	=291	=291	=291
!	!	!	!LO:HP:t=crescendo molto
16B\LL	.	(4gn\ 4ggn\	<
16dn\	.	.	.
16B\	.	.	.
16Gn\JJ	.	.	.
16Fn\LL	.	8a\L 8aa\	.
16G\	.	.	.
16B\	.	8b\J 8bb\	.
16d\JJ	.	.	.
=292	=292	=292	=292
16cn\LL	.	8ccn\L 8cccn\	.
16e\	.	.	.
16c\	.	8ddn\ 8dddn\	.
16Gn\JJ	.	.	.
16E\LL	.	8.ee\) 8.eee\	.
16G\	.	.	.
16c\	.	.	.
16e\JJ	.	16a\Jk 16aa\	.
!!LO:LB:g=original
=293	=293	=293	=293
*xywh-26:780,2718,2356,476	*	*xywh-26:780,2718,2356,476	*
16B\LL	.	(4gn\ 4ggn\	.
16dn\	.	.	.
16B\	.	.	.
16Gn\JJ	.	.	.
16Fn\LL	.	8a\L 8aa\	.
16G\	.	.	.
16B\	.	8b\J 8bb\	.
16d\JJ	.	.	.
=294	=294	=294	=294
16cn\LL	.	8ccn\L 8cccn\	.
16e\	.	.	.
16c\	.	8ddn\ 8dddn\	.
16Gn\JJ	.	.	.
16E\LL	.	8.ee\) 8.eee\	.
16G\	.	.	.
16c\	.	.	.
16e\JJ	.	16a\Jk 16aa\	.
=295	=295	=295	=295
16cn\LL	.	(4gn\ 4ggn\	f
16e\	.	.	.
16c\	.	.	.
16E\JJ	.	.	.
16B\LL	.	[4ee\ [4eee\	.
16e\	.	.	.
16B\	.	.	.
16Dn\JJ	.	.	.
=296	=296	=296	=296
16A#X\LL	.	4ee\] 4eee\]	.
16e\	.	.	.
16A#\	.	.	.
16C#X\JJ	.	.	.
16B\LL	.	4gn\) 4ggn\	.
16e\	.	.	.
16B\	.	.	.
16BB\JJ	.	.	.
=297	=297	=297	=297
16F#\LL	.	(4f#\ 4ff#\	.
16c#\	.	.	.
16F#\	.	.	.
16AA#X\JJ	.	.	.
16F#/LL	.	[4ee^\ [4eee\	pp
16AA#/	.	.	.
16F#/	.	.	.
16AA#/JJ	.	.	.
=298	=298	=298	=298
16F#/LL	.	4ee\]) 4eee\]	.
16AA/	.	.	.
16F#/	.	.	.
16AA#X/JJ	.	.	.
16F#\LL	.	(4e/ 4ee/	.
16c#\	.	.	.
16F#\	.	.	.
16AA#\JJ	.	.	.
=299	=299	=299	=299
16F#\LL	.	8d#\L) 8dd#\	f
16cn\	.	.	.
16F#\	.	(8f#\ 8ff#\	.
16AAn\JJ	.	.	.
16F#\LL	.	8g#X\ 8gg#X\	.
16c#X\	.	.	.
16F#\	.	8a\J 8aa\	.
16AA\JJ	.	.	.
!!LO:LB:g=original
=300	=300	=300	=300
*xywh-26:808,3134,2356,536	*	*xywh-26:808,3134,2356,536	*
16E#X\LL	.	8cc#\L 8ccc#\	.
16B\	.	.	.
16E#\	.	8b\) 8bb\	.
16GG#\JJ	.	.	.
16F#\LL	.	(8a'\ 8aa\	.
16A\	.	.	.
16F#\	.	8f#'\J) 8ff#\	.
16AA\JJ	.	.	.
=301	=301	=301	=301
16G#\LL	.	(8f#/L 8ff#/	.
16B\	.	.	.
16G#\	.	8e/ 8ee/	.
16BB\JJ	.	.	.
16Gn\LL	.	8.d#/ 8.dd#/	.
16A#X\	.	.	.
16G\	.	.	.
16BB\JJ	.	16c#/Jk) 16cc#/	.
=302	=302	=302	=302
16F#\LL	.	(>4.c#/ 4.cc#/	.
16An\	.	.	.
16F#\	.	.	.
16BB\JJ	.	.	.
16F#\LL	.	.	.
16B\	.	.	.
16F#\	.	8B/) 8b/	.
16BB\JJ	.	.	.
=303	=303	=303	=303
*	*	*^	*
*	*	*	*xywh-26:808,3134,2356,536	*
16B\LL	.	4gg#\	4g#\	.
16e\	.	.	.	.
16B\	.	.	.	.
16Dn\JJ	.	.	.	.
16B\LL	.	[4eee/	16ee\LL	.
16e\	.	.	16bb\	.
16B\	.	.	16gg#\	.
16D\JJ	.	.	[16ee\JJ	.
=304	=304	=304	=304	=304
16A#X\LL	.	4ee/] 4eee/]	16ccc#\LL	.
16e\	.	.	16ggn\	.
16A#\	.	.	16ee\	.
16C#\JJ	.	.	16cc#\JJ	.
16B\LL	.	(4ggn/	16gn\LL	.
16e\	.	.	16cc#\	.
16B\	.	.	16dd#\	.
16BB\JJ	.	.	16ee\JJ	.
=305	=305	=305	=305	=305
16F#\LL	.	4ff#/)	16f#\LL	.
16c#\	.	.	16cc#\	.
16F#\	.	.	16dd#\	.
16AA#X\JJ	.	.	16ee\JJ	.
16F#/LL	.	[4eee/	16ee\LL	pp
16AA#/	.	.	16ccc#\	.
16F#/	.	.	16ff#\	.
16AA#/JJ	.	.	[[16ee\JJ	.
=306	=306	=306	=306	=306
16F#\LL	.	4ee/]] 4eee/]	16ccc#\LL	.
16c#\	.	.	16ff#\	.
16F#\	.	.	16ee\	.
16AA#X\JJ	.	.	16cc#\JJ	.
16F#/LL	.	(4ee/	16e\LL	.
16AA#/	.	.	16f#\	.
16F#/	.	.	16cc#\	.
16AA#/JJ	.	.	16ee\JJ	.
*	*	*v	*v	*
!!LO:PB:g=original
=307	=307	=307	=307
*xywh-27:343,452,2352,531	*	*xywh-27:343,452,2352,531	*
16F#\LL	.	8d#\L) 8dd#\	f
16cn\	.	.	.
16F#\	.	(8f#\ 8ff#\	.
16AAn\JJ	.	.	.
16F#\LL	.	8g#\ 8gg#\	.
16c\	.	.	.
16F#\	.	8a\J 8aa\	.
16AA\JJ	.	.	.
=308	=308	=308	=308
16E#X\LL	.	8cc#\L 8ccc#\	.
16B\	.	.	.
16E#\	.	8b\) 8bb\	.
16GG#\JJ	.	.	.
16F#\LL	.	(8a\ 8aa\	.
16A\	.	.	.
16F#\	.	8f#\J) 8ff#\	.
16AA\JJ	.	.	.
=309	=309	=309	=309
16G#\LL	.	(8f#/L 8ff#/	.
16B\	.	.	.
16G#\	.	8e/ 8ee/	.
16BB\JJ	.	.	.
16Gn\LL	.	8.d#/ 8.dd#/	.
16A#X\	.	.	.
16G\	.	.	.
16BB\JJ	.	16c#/Jk) 16cc#/	.
=310	=310	=310	=310
16F#\LL	.	(4.a\ 4.aa\	.
16An\	.	.	.
16F#\	.	.	.
16BB\JJ	.	.	.
16F#\LL	.	.	.
16A\	.	.	.
16F#\	.	8d#/) 8dd#/	.
16BB\JJ	.	.	.
=311	=311	=311	=311
*	*	*^	*
*	*	*	*xywh-27:343,452,2352,531	*
(4dn\	.	16r	4ryy	.
.	.	(>16fn/LL	.	p
.	.	16g#/	.	.
.	.	16b/JJ	.	.
4c#\	.	8.ff#X^/L	16ff#X\LL	.
.	.	.	16gn\	.
.	.	.	16a#X\	.
.	.	16ee/Jk)	16ee\JJ	.
=312	=312	=312	=312	=312
4cn\	.	16r	4ryy	.
.	.	(>16d#/LL	.	.
.	.	16f#X/	.	.
.	.	16an/JJ	.	.
4B\)	.	8.ee^/L	16ee\LL	.
.	.	.	16fn\	.
.	.	.	16g#\	.
.	.	16ddn/Jk)	16ddn\JJ	.
=313	=313	=313	=313	=313
4A\	.	16r	4ryy	.
.	.	(>16cn/LL	.	<
.	.	16d#/	.	.
.	.	16f#X/JJ	.	.
(4E#X\	.	8.cc#X^/L	16cc#X\LL	.
.	.	.	16dn\	.
.	.	.	16g#\	.
.	.	16b/Jk)	16b\JJ	.
!!LO:LB:g=original
=314	=314	=314	=314	=314
*xywh-27:371,903,2340,479	*	*xywh-27:371,903,2340,479	*xywh-27:371,903,2340,479	*
4F#\	.	8.b^/L	16b\LL	.
.	.	.	16c#\	.
.	.	.	16f#\	.
.	.	16a/Jk	16a\JJ	.
4BB/)	.	8.g#^/L	16g#\LL	[
.	.	.	16A\	.
.	.	.	16d#\	.
.	.	16f#/Jk	16f#\JJ	.
=315	=315	=315	=315	=315
(4E\	.	16r	4ryy	pp
.	.	(16Gn/LL	.	.
.	.	16A#X/	.	.
.	.	16c#/JJ	.	.
4D#\	.	8.g#X^/L	16g#X\LL	.
.	.	.	16An\	.
.	.	.	16cn\	.
.	.	16f#/Jk)	16f#\JJ	.
*	*	*clefF4	*	*
=316	=316	=316	=316	=316
4Dn\	.	4ryy	16r	.
.	.	.	(16Fn\LL	.
.	.	.	16G#\	.
.	.	.	16B\JJ	.
4C#/)	.	8.f#X^/L	16f#X\LL	.
.	.	.	16Gn\	.
.	.	.	16A#X\	.
.	.	16e/Jk)	16e\JJ	.
=317	=317	=317	=317	=317
!	!	!	!	!LO:HP:t=crescendo sempre ed appasionato
(4Cn/	.	16r	4ryy	<
.	.	(16D#\LL	.	.
.	.	16F#X\	.	.
.	.	16An\JJ	.	.
4BB/	.	8.e^/L	16e\LL	.
.	.	.	16Fn\	.
.	.	.	16A\	.
.	.	16dn/Jk)	16dn\JJ	.
=318	=318	=318	=318	=318
4BB-X/	.	(8.e^/L	16e\LL	.
.	.	.	16Fn\	.
.	.	.	16G#\	.
.	.	16dn/Jk	16dn\JJ	.
4AA/	.	8.e^/L	16e\LL	.
.	.	.	16F#X\	.
.	.	.	16A\	.
.	.	16d/Jk)	16d\JJ	.
*	*	*clefG2	*	*
=319	=319	=319	=319	=319
4GG#/)	.	16r	4ryy	.
.	.	(>16B/LL	.	.
.	.	16dn/	.	.
.	.	16fn/JJ	.	.
(4GGn/ 4Gn/	.	8.cc#^/L	16cc#\LL	.
.	.	.	16d#X\	.
.	.	.	16f#X\	.
.	.	16b/Jk	16b\JJ	.
!!LO:LB:g=original
=320	=320	=320	=320	=320
*xywh-27:328,1357,2372,539	*	*xywh-27:328,1357,2372,539	*xywh-27:328,1357,2372,539	*
4FF#/ 4F#/	.	8.cc#^/L	16cc#\LL	.
.	.	.	16dn\	.
.	.	.	16f#X\	.
.	.	16b/Jk	16b\JJ	.
4EE#X/ 4E#X/	.	8.cc#^/L	16cc#\LL	.
.	.	.	16d#X\	.
.	.	.	16g#\	.
.	.	16b/Jk)	16b\JJ	.
=321	=321	=321	=321	=321
4EEn/)	.	16r	4ryy	.
.	.	(>16gn/LL	.	.
.	.	16a#X/	.	.
.	.	16cc#/JJ	.	.
(4DD#/ 4D#/	.	8.gg#X^/L	16gg#X\LL	.
.	.	.	16an\	.
.	.	.	16b#X\	.
.	.	16ff#/Jk	16ff#\JJ	.
=322	=322	=322	=322	=322
4DDn/ 4Dn/	.	8.gg#^/L	16gg#\LL	.
.	.	.	16a\	.
.	.	.	16b#X\	.
.	.	16ff#/Jk	16ff#\JJ	.
4CC#/ 4C#/	.	8.gg#^/L	16gg#\LL	.
.	.	.	16a\	.
.	.	.	16cc#\	.
.	.	16ff#/Jk)	16ff#\JJ	.
=323	=323	=323	=323	=323
4CCn/)	.	16r	4ryy	.
.	.	(>(>16dd#\LL	.	.
.	.	16ff#\	.	.
.	.	16aa\JJ	.	.
(4BBB/ 4BB/	.	8.eee^/L)	16eee\LL	.
.	.	.	16ffn\	.
.	.	.	16gg#\	.
.	.	16dddn/Jk	16dddnX\JJ	.
=324	=324	=324	=324	=324
4AAA/ 4AA/	.	8.eee^/L	16eee\LL	.
.	.	.	16ffn\	.
.	.	.	16aa\	.
.	.	16dddn/Jk	16dddn\JJ	.
4GGG#/ 4GG#/	.	8.eee^/L	16eee\LL	.
.	.	.	16ff\	.
.	.	.	16bb\	.
.	.	16ddd/Jk)	16ddd\JJ	.
=325	=325	=325	=325	=325
4AAA/) 4AA/	.	(8.dddn^/L	16dddn\LL	.
.	.	.	16ee\	.
.	.	.	16ff#\	.
.	.	16cccn/Jk	16cccn\JJ	.
[4AA^\ [4A\	.	8.bb^/L	16bb\LL	.
.	.	.	16een\	.
.	.	.	16ff#\	.
.	.	16aa/Jk	16aa\JJ	.
=326	=326	=326	=326	=326
4AA\] 4A\]	.	8.gg#^/L	16gg#\LL	.
.	.	.	16a\	.
.	.	.	16ccn\	.
.	.	16ff#/Jk	16ff#\JJ	.
4AAA/ 4AA/	.	8.ee^/L	16ee\LL	.
.	.	.	16e\	.
.	.	.	16f#\	.
.	.	16ccn/Jk)	16ccn\JJ	.
!!LO:LB:g=original
=327	=327	=327	=327	=327
*xywh-27:338,1844,2390,491	*	*xywh-27:338,1844,2390,491	*xywh-27:338,1844,2390,491	*
!	!	!LO:TX:b:i:t=con gran espressione	!	!
4BBB/ 4BB/	.	(8.ccn^/L	16ccn\LL	.
.	.	.	16e\	.
.	.	.	16g#\	.
.	.	16b/Jk	16b\JJ	.
[4BB^<\ [4B\	.	8.ff#^/L	16ff#\LL	.
.	.	.	16g#\	.
.	.	.	16b\	.
.	.	16ee/Jk	16ee\JJ	.
=328	=328	=328	=328	=328
4BB\] 4B\]	.	8.dd#^/L	16dd#\LL	.
.	.	.	16e\	.
.	.	.	16gn\	.
.	.	16cc#X/Jk	16cc#X\JJ	.
(4CC#/ 4C#/	.	8.b^/L	16b\LL	.
.	.	.	16e\	.
.	.	.	16g\	.
.	.	16a#X/Jk)	16a#\JJ	.
=329	=329	=329	=329	=329
4BBB/) 4BB/	.	(8.cc#^/L	16cc#\LL	.
.	.	.	16e\	.
.	.	.	16g#X\	.
.	.	16b/Jk	16b\JJ	.
[4BB^\ [4B\	.	8.ff#^/L	16ff#\LL	.
.	.	.	16g#\	.
.	.	.	16b\	.
.	.	16ee/Jk	16ee\JJ	.
=330	=330	=330	=330	=330
4BB\] 4B\]	.	8.dd#^/L	16dd#\LL	.
.	.	.	16e\	.
.	.	.	16gn\	.
.	.	16cc#/Jk	16cc#\JJ	.
(4CC#/ 4C#/	.	8.b^/L	16b\LL	.
.	.	.	16e\	.
.	.	.	16g\	.
.	.	16a#X/Jk)	16a#\JJ	.
=331	=331	=331	=331	=331
4BBB/) 4BB/	.	(8.cc#^/L	16cc#\LL	.
.	.	.	16e\	.
.	.	.	16g#X\	.
.	.	16b/Jk	16b\JJ	.
[4BB^<\ [4B\	.	8.an^>/L	16an\LL	.
.	.	.	16dn\	.
.	.	.	16e#X\	.
.	.	16g#/Jk	16g#\JJ	.
=332	=332	=332	=332	=332
!	!	!LO:TX:a:i:t=ritenuto	!	!
4BB\] 4B\]	.	8.g#^/L	16g#\LL	.
.	.	.	16A#X\	.
.	.	.	16en\	.
.	.	16f#/Jk	16f#\JJ	.
4BBB/ 4BB/	.	8.g#^/L	16g#\LL	.
.	.	.	16An\	.
.	.	.	16d#X\	.
.	.	16f#/Jk)	16f#\JJ	.
!!LO:LB:g=original
=333	=333	=333	=333	=333
*xywh-27:363,2295,2340,474	*	*xywh-27:363,2295,2340,474	*xywh-27:363,2295,2340,474	*
!	!	!	!LO:TX:a:rj:i:t=Piu Allegro. 	!
!	!	!	!LO:TX:a:i:t=[quarter]=108.	!
16EE/	.	8e/	16G#\LL	p
16r	.	.	16B\	.
(16EE/LL	.	8b/L	16g#\	.
16BB/JJ	.	.	16B\JJ	.
8G#\L	.	8e/	16c#\LL	.
.	.	.	16B\	.
8A\J)	.	8f#/J	16d#\	.
.	.	.	16B\JJ	.
=334	=334	=334	=334	=334
16EE/LL	.	8a/	16f#\LL	.
16BB/	.	.	16B\JJ	<
16E/	.	4g#/ 4e/	4ryy	.
16F#/JJ	.	.	.	.
16G#\LL	.	.	.	.
16B\	.	.	.	.
16dn\	.	(8e/	8ryy	.
[<16E\JJ	.	.	.	.
=335	=335	=335	=335	=335
*^	*	*	*	*
*	*xywh-27:363,2295,2340,474	*	*	*	*
.	.	.	8qb/	.	.
4.c#/	8E\]	2	(16a/LL	4.e\)	.
.	.	.	16g#/	.	.
.	[4.E\	.	16a/	.	.
.	.	.	16b/JJ	.	.
.	.	.	16cc#/LL	.	.
.	.	.	16dd#/	.	.
8cn/	.	2	16ee/	8a\	.
.	.	.	16ff#/JJ	.	.
*	*	*	*v	*v	*
=336	=336	=336	=336	=336
16B/LL	4E\]	1	8g#'\) 8ee\ 8gg#\	[
16c#X/	.	2	.	.
16B/	.	1	(4g#/ 4b/	.
16G#/JJ	.	.	.	.
16E/LL	4ryy	.	.	.
16C#/	.	4	.	.
16BB/	.	1	8e/) 8g#/	.
16GG#/JJ	.	.	.	.
*v	*v	*	*	*
=337	=337	=337	=337
*	*	*^	*
*	*	*	*xywh-27:363,2295,2340,474	*
16EE/	.	16r	16ryy	.
16r	.	16ryy	16e\LL	p
(16AA/LL	.	8ee/L	16cc#\	.
16E/JJ	.	.	16e\JJ	.
8c#\L	.	8a/	16f#\LL	.
.	.	.	16e\	.
8dn\J)	.	8b/J	16g#\	.
.	.	.	16e\JJ	.
=338	=338	=338	=338	=338
16AA\LL	.	8ddn/	16b\LL	<
16E\	.	.	16e\JJ	.
16A\	.	4cc#/ 4a/	4ryy	.
16B\JJ	.	.	.	.
16c#\LL	.	.	.	.
16d#X\	.	.	.	.
16e\	.	[8a/	8ryy	.
16c#\JJ	.	.	.	.
!!LO:LB:g=original
=339	=339	=339	=339	=339
*^	*	*	*	*
*xywh-27:373,2756,2322,466	*xywh-27:373,2756,2322,466	*	*xywh-27:373,2756,2322,466	*xywh-27:373,2756,2322,466	*
.	.	.	8qee/	.	[
4f#/	8B\	.	(16dd#/LL	4a\]	.
.	.	.	16cc#/	.	.
.	4B\	.	16dd#/	.	.
.	.	.	16ee/JJ	.	.
4ryy	.	.	16ff#\LL	4ryy	.
.	.	.	16gg#\	.	.
.	8BB/	2	16aa\	.	.
.	.	.	16bb\JJ)	.	.
*v	*v	*	*	*	*
*	*	*v	*v	*
=340	=340	=340	=340
!	!	!	!LO:HP:t=crescendo e stringendo
16EE\LL	.	8aa\ 8ccc#\	<
16BB\	.	.	.
16D#\	.	4dd#\ 4ff#\	.
16A\JJ	.	.	.
16B\LL	.	.	.
16A\	.	.	.
16D#\	.	(8ff#\ 8aa\	.
16BB\JJ	.	.	.
=341	=341	=341	=341
16EE/LL	.	8ee\) 8gg#\	.
16BB/	.	.	.
16C#/	.	4g#\ 4ee\	.
16BB/JJ	.	.	.
16G#\LL	.	.	.
16BB\	.	.	.
16C#\	.	(8gg#\ 8bb\	.
16BB\JJ	.	.	.
=342	=342	=342	=342
16EE/LL	.	8ff#\) 8aa\	.
16BB/	.	.	.
16D#/	.	4a\ 4dd#\	.
16A/JJ	.	.	.
16B\LL	.	.	.
16A\	.	.	.
16D#\	.	(8ff#\ 8aa\	.
16BB\JJ	.	.	.
=343	=343	=343	=343
16EE/LL	.	8ee\) 8gg#\	.
16BB/	.	.	.
16C#/	.	4g#\ 4ee\	.
16BB/JJ	.	.	.
16G#\LL	.	.	.
16BB\	.	.	.
16C#\	.	(8gg#\ 8bb\	.
16BB\JJ	.	.	.
=344	=344	=344	=344
16EE/LL	.	8ff#\) 8aa\	.
16BB/	.	.	.
16D#/	.	4a\ 4dd#\	.
16A/JJ	.	.	.
16B\LL	.	.	.
16A\	.	.	.
16F#\	.	8ff#\ 8aa\	.
16D#\JJ	.	.	.
=345	=345	=345	=345
*	*	*^	*
*	*	*	*xywh-27:373,2756,2322,466	*
16EE/	.	8gg#/	16ee\LL	ff
16r	.	.	16b\	.
16G#\LL	.	8bb/L	16gg#\	.
16BB\JJ	.	.	16b\JJ	.
16EE/LL	.	8ee/	16cc#\LL	.
16BB/	.	.	16b\	.
16EE/	.	8ff#/J	16dd#\	.
16BB/JJ	.	.	16b\JJ	.
!!LO:LB:g=original
=346	=346	=346	=346	=346
*xywh-27:348,3155,2367,544	*	*xywh-27:348,3155,2367,544	*xywh-27:348,3155,2367,544	*
16EE/LL	.	8gg#/L	16ee\LL	.
16BB/	.	.	16b\	.
16G#/	.	8bb/J	16gg#\	.
16BB/JJ	.	.	16b\JJ	.
16EE/LL	.	8ee/L	16cc#\LL	.
16BB/	.	.	16b\	.
16EE/	.	8ff#/J	16dd#\	.
16BB/JJ	.	.	16b\JJ	.
=347	=347	=347	=347	=347
16EE/LL	.	8gg#/L	16ee\LL	.
16BB/	.	.	16b\	.
16G#/	.	8bb/	16gg#\	.
16BB/JJ	.	.	16b\JJ	.
16EE/LL	.	8ee/	16cc#\LL	.
16BB/	.	.	16b\	.
16EE/	.	8ff#/J	16dd#\	.
16BB/JJ	.	.	16b\JJ	.
=348	=348	=348	=348	=348
16EE/LL	.	8gg#/L	16ee\LL	.
16BB/	.	.	16b\	.
16G#/	.	8bb/J	16gg#\	.
16BB/JJ	.	.	16b\JJ	.
16EE/LL	.	8ee/L	16cc#\LL	.
16BB/	.	.	16b\	.
16EE/	.	8ff#/J	16dd#\	.
16BB/JJ	.	.	16b\JJ	.
*	*	*v	*v	*
=349	=349	=349	=349
8EE/	.	8ee\ 8gg#\	.
8r	.	8r	.
8BB\ 8B\	.	8b\ 8dd#\ 8ff#\ 8bb\	.
8r	.	8r	.
=350	=350	=350	=350
8EE/ 8E/	.	8ee\ 8gg#\ 8bb\ 8eee\	.
8r	.	8r	.
*	*	*8va	*
8BBB/ 8BB/	.	8bb\ 8ddd#\ 8fff#\ 8bbb\	.
*	*	*X8va	*
8r	.	8r	.
=351	=351	=351	=351
*	*	*8va	*
8EEE/ 8EE/	.	8eee\ 8ggg#\ 8bbb\ 8eeee\	.
*	*	*X8va	*
8r	.	8r	.
4r	.	4r	.
=352	=352	=352	=352
8BBB/ 8FF#/ 8BB/	.	8b\ 8dd#\ 8ff#\ 8bb\	.
8r	.	8r	.
4r	.	4r	.
=353	=353	=353	=353
8EE/ 8BB/ 8E/	.	8e/ 8g#/ 8b/ 8ee/	.
8r	.	8r	.
4r	.	4r	.
==	==	==	==
*-	*-	*-	*-
!!!system-decoration: [(s1,s2)]
!!!RDF**kern: > = above
!!!RDF**kern: < = below
!!!RDF**dynam: > = diminuendo
!!!RDF**dynam: < = crescendo
!!!ENC: Andrzej Gręziak
!!!END: 2022-03-10
!!!ENC: Leszek Kubiak
!!!END: 2022-03-15
!!!ENC-iiif: Antoni Szymański
!!!END-iiif: 2022-08-19
!!!YEC: Copyright 2022 Narodowy Instytut Fryderyka Chopina (https://polishscores.org)
!!!YEM: License CC-BY-4.0 (https://creativecommons.org/licenses/by/4.0)
